; generated by PrusaSlicer 2.3.0+win64 on 2021-03-07 at 18:47:44 UTC

; 

; external perimeters extrusion width = 0.45mm
; perimeters extrusion width = 0.45mm
; infill extrusion width = 0.45mm
; solid infill extrusion width = 0.45mm
; top infill extrusion width = 0.40mm
; first layer extrusion width = 0.70mm

M107
M104 S200 ; set temperature
;TYPE:Custom
G28 ; home all axes
G1 Z5 F5000 ; lift nozzle
M109 S200 ; set temperature and wait for it to be reached
G21 ; set units to millimeters
G90 ; use absolute coordinates
M82 ; use absolute distances for extrusion
G92 E0
; Filament gcode
;LAYER_CHANGE
;Z:0.35
;HEIGHT:0.35
G1 Z0.350 F7800.000
G1 E-2.00000 F2400.000
G92 E0
G1 X60.311 Y87.267 F7800.000
G1 E2.00000 F2400.000
;TYPE:Skirt
;WIDTH:0.7
G1 F1800.000
G1 X107.684 Y61.469 E6.90490
G1 X108.846 Y61.061 E7.01691
G1 X110.058 Y60.876 E7.12835
G1 X117.874 Y60.865 E7.83910
G1 X119.044 Y60.970 E7.94593
G1 X120.177 Y61.280 E8.05276
G1 X121.243 Y61.789 E8.16016
G1 X122.197 Y62.475 E8.26699
G1 X141.243 Y81.024 E10.68441
G1 X142.049 Y82.248 E10.81770
G1 X149.432 Y97.076 E12.32389
G1 X149.877 Y98.319 E12.44396
G1 X150.066 Y99.633 E12.56460
G1 X149.949 Y101.183 E12.70594
G1 X149.472 Y102.669 E12.84785
G1 X142.056 Y117.525 E14.35768
G1 X141.438 Y118.517 E14.46393
G1 X140.761 Y119.284 E14.55693
G1 X122.125 Y137.284 E16.91292
G1 X121.119 Y138.080 E17.02953
G1 X120.335 Y138.513 E17.11100
G1 X119.494 Y138.838 E17.19304
G1 X118.622 Y139.045 E17.27450
G1 X117.724 Y139.133 E17.35655
G1 X110.172 Y139.121 E18.04325
G1 X108.906 Y138.912 E18.15986
G1 X107.711 Y138.467 E18.27590
G1 X60.465 Y113.203 E23.14758
G1 X59.355 Y112.356 E23.27455
G1 X51.936 Y105.146 E24.21522
G1 X50.987 Y103.988 E24.35138
G1 X50.553 Y103.204 E24.43285
G1 X50.229 Y102.369 E24.51431
G1 X50.021 Y101.497 E24.59578
G1 X49.932 Y100.606 E24.67724
G1 X49.964 Y99.710 E24.75871
G1 X50.117 Y98.828 E24.84017
G1 X50.385 Y97.979 E24.92106
G1 X50.767 Y97.169 E25.00253
G1 X51.233 Y96.449 E25.08053
G1 X51.783 Y95.799 E25.15796
G1 X59.220 Y88.148 E26.12812
G1 X60.265 Y87.305 E26.25020
G1 E24.25020 F2400.000
G92 E0
G1 X63.320 Y97.695 F7800.000
G1 E2.00000 F2400.000
;TYPE:External perimeter
G1 F1800.000
G1 X64.070 Y97.651 E2.06830
G1 X64.764 Y97.779 E2.13253
G1 X65.380 Y98.044 E2.19350
G1 X65.950 Y98.463 E2.25783
G1 X66.409 Y99.002 E2.32217
G1 X66.746 Y99.673 E2.39047
G1 X66.904 Y100.361 E2.45470
G1 X66.904 Y101.032 E2.51567
G1 X66.746 Y101.721 E2.58000
G1 X66.432 Y102.357 E2.64444
G1 X65.979 Y102.904 E2.70898
G1 X65.380 Y103.350 E2.77688
G1 X64.728 Y103.626 E2.84132
G1 X64.066 Y103.743 E2.90240
G1 X63.322 Y103.699 E2.97019
G1 X62.643 Y103.491 E3.03474
G1 X62.032 Y103.133 E3.09918
G1 X61.520 Y102.643 E3.16361
G1 X61.135 Y102.049 E3.22794
G1 X60.906 Y101.419 E3.28891
G1 X60.819 Y100.716 E3.35335
G1 X60.905 Y99.974 E3.42125
G1 X61.152 Y99.309 E3.48580
G1 X61.546 Y98.719 E3.55023
G1 X62.064 Y98.237 E3.61456
G1 X62.644 Y97.902 E3.67553
G1 X63.262 Y97.713 E3.73431
G1 X63.456 Y97.319 F7800.000
G1 E1.73431 F2400.000
G92 E0
G1 X62.445 Y104.084 F7800.000
G1 E2.00000 F2400.000
;TYPE:Perimeter
G1 F1800.000
G1 X63.210 Y104.319 E2.07277
G1 X64.103 Y104.371 E2.15404
G1 X64.906 Y104.229 E2.22821
G1 X65.174 Y104.115 E2.25469
G1 X65.347 Y104.369 E2.28258
G1 X63.880 Y105.878 E2.47404
G1 X62.295 Y104.338 E2.67499
G1 X62.415 Y104.136 E2.69638
G1 E0.69638 F2400.000
G92 E0
G1 X62.876 Y96.474 F7800.000
G1 E2.00000 F2400.000
G1 F1800.000
G1 X63.939 Y95.379 E2.13880
G1 X64.837 Y96.251 E2.25255
G1 X64.709 Y96.498 E2.27782
G1 X64.155 Y96.396 E2.32907
G1 X62.935 Y96.469 E2.44015
G1 E0.44015 F2400.000
G92 E0
G1 X59.622 Y100.185 F7800.000
G1 E2.00000 F2400.000
G1 F1800.000
G1 X59.551 Y100.799 E2.05617
G1 X59.098 Y100.360 E2.11351
G1 X59.380 Y100.070 E2.15021
G1 X59.568 Y100.160 E2.16918
G1 E0.16918 F2400.000
G92 E0
G1 X67.740 Y98.859 F7800.000
G1 E2.00000 F2400.000
G1 F1800.000
G1 X71.122 Y95.379 E2.44128
G1 X74.815 Y98.969 E2.90961
G1 X78.305 Y95.379 E3.36483
G1 X81.998 Y98.969 E3.83316
G1 X85.487 Y95.379 E4.28838
G1 X89.181 Y98.969 E4.75671
G1 X92.670 Y95.379 E5.21193
G1 X96.363 Y98.969 E5.68026
G1 X99.853 Y95.379 E6.13548
G1 X103.546 Y98.969 E6.60381
G1 X107.035 Y95.379 E7.05903
G1 X110.729 Y98.969 E7.52736
G1 X114.218 Y95.379 E7.98258
G1 X117.911 Y98.969 E8.45091
G1 X124.065 Y92.638 E9.25369
G1 X109.389 Y78.373 E11.11465
G1 X112.993 Y74.665 E11.58488
G1 X109.389 Y71.162 E12.04194
G1 X110.484 Y70.035 E12.18486
G1 X114.300 Y73.743 E12.66863
G1 X117.904 Y70.035 E13.13886
G1 X133.601 Y85.292 E15.12940
G1 X129.822 Y89.181 E15.62252
G1 X140.860 Y99.911 E17.02229
G1 X129.822 Y110.573 E18.41780
G1 X133.602 Y114.486 E18.91252
G1 X117.616 Y129.927 E20.93345
G1 X114.521 Y126.523 E21.35179
G1 X110.610 Y130.078 E21.83237
G1 X109.452 Y129.025 E21.97466
G1 X113.027 Y125.573 E22.42650
G1 X109.523 Y122.168 E22.87071
G1 X123.774 Y107.507 E24.72983
G1 X117.549 Y101.456 E25.51921
G1 X114.148 Y104.955 E25.96285
G1 X110.410 Y101.321 E26.43693
G1 X107.009 Y104.820 E26.88057
G1 X103.137 Y101.056 E27.37159
G1 X99.792 Y104.497 E27.80793
G1 X96.193 Y100.998 E28.26435
G1 X92.466 Y104.833 E28.75060
G1 X88.786 Y101.256 E29.21719
G1 X85.228 Y104.917 E29.68137
G1 X81.633 Y101.423 E30.13721
G1 X78.161 Y104.995 E30.59017
G1 X74.486 Y101.423 E31.05618
G1 X71.014 Y104.995 E31.50914
G1 X67.958 Y102.024 E31.89664
G1 X68.154 Y101.174 E31.97601
G1 X68.154 Y100.220 E32.06278
G1 X67.932 Y99.254 E32.15285
G1 X67.766 Y98.913 E32.18737
G1 E30.18737 F2400.000
G92 E0
G1 X130.705 Y89.169 F7800.000
G1 E2.00000 F2400.000
G1 F1800.000
G1 X141.758 Y99.912 E3.40159
G1 X130.705 Y110.588 E4.79892
G1 X134.485 Y114.502 E5.29364
G1 X117.587 Y130.824 E7.42996
G1 X114.479 Y127.406 E7.85005
G1 X110.610 Y130.923 E8.32546
G1 X108.539 Y129.039 E8.58004
G1 X112.129 Y125.572 E9.03387
G1 X108.640 Y122.181 E9.47626
G1 X122.890 Y107.520 E11.33538
G1 X117.561 Y102.340 E12.01112
G1 X114.161 Y105.839 E12.45476
G1 X110.422 Y102.205 E12.92884
G1 X107.022 Y105.703 E13.37248
G1 X103.149 Y101.940 E13.86350
G1 X99.805 Y105.380 E14.29984
G1 X96.205 Y101.882 E14.75626
G1 X92.478 Y105.716 E15.24251
G1 X88.799 Y102.140 E15.70910
G1 X85.241 Y105.800 E16.17328
G1 X81.646 Y102.306 E16.62912
G1 X78.174 Y105.878 E17.08208
G1 X74.499 Y102.306 E17.54809
G1 X71.027 Y105.878 E18.00105
G1 X67.218 Y102.176 E18.48403
G1 X67.338 Y101.933 E18.50873
G1 X67.529 Y101.103 E18.58615
G1 X67.529 Y100.291 E18.66002
G1 X67.339 Y99.464 E18.73717
G1 X66.931 Y98.651 E18.81984
G1 X66.379 Y98.002 E18.89730
G1 X65.693 Y97.498 E18.97472
G1 X64.947 Y97.177 E19.04859
G1 X64.112 Y97.024 E19.12574
G1 X63.205 Y97.077 E19.20841
G1 X62.393 Y97.325 E19.28556
G1 X61.690 Y97.732 E19.35943
G1 X61.067 Y98.312 E19.43685
G1 X60.592 Y99.023 E19.51457
G1 X60.293 Y99.827 E19.59259
G1 X60.189 Y100.718 E19.67416
G1 X60.294 Y101.566 E19.75188
G1 X60.531 Y102.217 E19.81489
G1 X60.280 Y102.380 E19.84206
G1 X58.215 Y100.372 E20.10398
G1 X63.927 Y94.495 E20.84919
G1 X67.620 Y98.085 E21.31753
G1 X71.110 Y94.495 E21.77274
G1 X74.803 Y98.085 E22.24108
G1 X78.292 Y94.495 E22.69629
G1 X81.986 Y98.085 E23.16463
G1 X85.475 Y94.495 E23.61984
G1 X89.168 Y98.085 E24.08817
G1 X92.657 Y94.495 E24.54339
G1 X96.351 Y98.085 E25.01172
G1 X99.840 Y94.495 E25.46694
G1 X103.533 Y98.085 E25.93527
G1 X107.023 Y94.495 E26.39049
G1 X110.716 Y98.085 E26.85882
G1 X114.205 Y94.495 E27.31404
G1 X117.899 Y98.085 E27.78237
G1 X123.181 Y92.651 E28.47151
G1 X108.505 Y78.386 E30.33247
G1 X112.110 Y74.678 E30.80270
G1 X108.505 Y71.174 E31.25976
G1 X110.472 Y69.151 E31.51632
G1 X114.287 Y72.859 E32.00009
G1 X117.891 Y69.151 E32.47032
G1 X134.485 Y85.280 E34.57450
G1 X130.747 Y89.126 E35.06217
G1 X131.589 Y89.156 F7800.000
;TYPE:External perimeter
G1 F1800.000
G1 X142.656 Y99.914 E36.46558
G1 X131.589 Y110.604 E37.86473
G1 X135.369 Y114.517 E38.35945
G1 X117.558 Y131.721 E40.61116
G1 X114.437 Y128.288 E41.03299
G1 X110.610 Y131.767 E41.50324
G1 X107.625 Y129.053 E41.87011
G1 X111.231 Y125.570 E42.32593
G1 X107.756 Y122.193 E42.76650
G1 X122.007 Y107.532 E44.62562
G1 X117.574 Y103.224 E45.18771
G1 X114.173 Y106.722 E45.63136
G1 X110.435 Y103.088 E46.10544
G1 X107.034 Y106.587 E46.54908
G1 X103.162 Y102.823 E47.04009
G1 X99.817 Y106.264 E47.47643
G1 X96.218 Y102.766 E47.93286
G1 X92.491 Y106.600 E48.41910
G1 X88.811 Y103.024 E48.88570
G1 X85.253 Y106.684 E49.34987
G1 X81.658 Y103.190 E49.80571
G1 X78.186 Y106.762 E50.25867
G1 X74.511 Y103.190 E50.72468
G1 X71.039 Y106.762 E51.17764
G1 X67.364 Y103.190 E51.64365
G1 X63.892 Y106.762 E52.09661
G1 X57.331 Y100.385 E52.92861
G1 X63.914 Y93.612 E53.78746
G1 X67.608 Y97.202 E54.25580
G1 X71.097 Y93.612 E54.71101
G1 X74.790 Y97.202 E55.17935
G1 X78.280 Y93.612 E55.63456
G1 X81.973 Y97.202 E56.10289
G1 X85.462 Y93.612 E56.55811
G1 X89.156 Y97.202 E57.02644
G1 X92.645 Y93.612 E57.48166
G1 X96.338 Y97.202 E57.94999
G1 X99.828 Y93.612 E58.40521
G1 X103.521 Y97.202 E58.87354
G1 X107.010 Y93.612 E59.32876
G1 X110.704 Y97.202 E59.79709
G1 X114.193 Y93.612 E60.25231
G1 X117.886 Y97.202 E60.72064
G1 X122.297 Y92.663 E61.29613
G1 X107.622 Y78.398 E63.15710
G1 X111.226 Y74.690 E63.62733
G1 X107.622 Y71.187 E64.08438
G1 X110.459 Y68.267 E64.45459
G1 X114.274 Y71.976 E64.93836
G1 X117.879 Y68.267 E65.40859
G1 X135.369 Y85.267 E67.62641
G1 X131.631 Y89.113 E68.11408
G1 X131.463 Y89.536 F7800.000
G1 E66.11408 F2400.000
G92 E0
G1 X117.484 Y70.735 F7800.000
G1 E2.00000 F2400.000
;TYPE:Solid infill
;WIDTH:0.704808
G1 F1800.000
G1 X132.501 Y85.752 E3.94593
G1 X132.062 Y86.204 E4.00364
G1 X117.244 Y71.386 E5.92380
G1 X116.805 Y71.837 E5.98150
G1 X131.623 Y86.655 E7.90167
G1 X131.184 Y87.107 E7.95937
G1 X116.366 Y72.289 E9.87954
G1 X115.927 Y72.740 E9.93724
G1 X130.745 Y87.558 E11.85740
G1 X130.306 Y88.010 E11.91511
G1 X115.488 Y73.192 E13.83527
G1 X115.050 Y73.644 E13.89298
G1 X129.868 Y88.462 E15.81314
G1 X129.429 Y88.913 E15.87084
G1 X114.624 Y74.108 E17.78930
G1 X114.185 Y74.560 E17.84701
G1 X139.855 Y100.230 E21.17344
G1 X139.402 Y100.668 E21.23115
G1 X113.746 Y75.012 E24.55576
G1 X113.418 Y75.348 E24.59881
G1 X113.194 Y75.131 E24.62744
G1 X113.086 Y75.242 E24.64168
G1 X138.949 Y101.105 E27.99311
G1 X138.496 Y101.543 E28.05081
G1 X112.647 Y75.694 E31.40042
G1 X112.208 Y76.145 E31.45812
G1 X138.043 Y101.980 E34.80591
G1 X137.590 Y102.418 E34.86361
G1 X111.769 Y76.597 E38.20958
G1 X111.330 Y77.049 E38.26728
G1 X137.137 Y102.855 E41.61142
G1 X136.684 Y103.293 E41.66913
G1 X110.891 Y77.500 E45.01145
G1 X110.452 Y77.952 E45.06916
G1 X136.231 Y103.731 E48.40966
G1 X135.778 Y104.168 E48.46737
G1 X124.487 Y92.876 E49.93058
G1 X124.048 Y93.328 E49.98828
G1 X135.325 Y104.606 E51.44967
G1 X134.872 Y105.043 E51.50738
G1 X123.609 Y93.780 E52.96695
G1 X123.170 Y94.231 E53.02465
G1 X134.419 Y105.481 E54.48240
G1 X133.966 Y105.918 E54.54011
G1 X122.731 Y94.683 E55.99603
G1 X122.292 Y95.134 E56.05374
G1 X133.513 Y106.356 E57.50785
G1 X133.060 Y106.793 E57.56555
G1 X121.853 Y95.586 E59.01784
G1 X121.414 Y96.038 E59.07555
G1 X132.607 Y107.231 E60.52601
G1 X132.154 Y107.668 E60.58372
G1 X120.975 Y96.489 E62.03237
G1 X120.536 Y96.941 E62.09007
G1 X131.701 Y108.106 E63.53690
G1 X131.248 Y108.543 E63.59461
G1 X120.097 Y97.392 E65.03962
G1 X119.658 Y97.844 E65.09732
G1 X130.795 Y108.981 E66.54051
G1 X130.342 Y109.419 E66.59822
G1 X119.219 Y98.295 E68.03959
G1 X118.780 Y98.747 E68.09729
G1 X129.889 Y109.856 E69.53684
G1 X129.436 Y110.294 E69.59455
G1 X118.341 Y99.199 E71.03227
G1 X117.921 Y99.631 E71.08759
G1 X116.603 Y98.350 E71.25602
G1 X132.831 Y114.579 E73.35898
G1 X132.378 Y115.016 E73.41668
G1 X113.821 Y96.459 E75.82136
G1 X113.382 Y96.911 E75.87906
G1 X117.404 Y100.933 E76.40023
G1 X117.539 Y100.794 E76.41802
G1 X124.437 Y107.498 E77.29936
G1 X124.206 Y107.735 E77.32967
G1 X131.925 Y115.454 E78.32993
G1 X131.472 Y115.892 E78.38764
G1 X123.767 Y108.187 E79.38608
G1 X123.328 Y108.638 E79.44378
G1 X131.019 Y116.329 E80.44041
G1 X130.566 Y116.767 E80.49811
G1 X122.889 Y109.090 E81.49291
G1 X122.450 Y109.541 E81.55062
G1 X130.113 Y117.204 E82.54360
G1 X129.660 Y117.642 E82.60131
G1 X122.011 Y109.993 E83.59247
G1 X121.572 Y110.444 E83.65018
G1 X129.207 Y118.079 E84.63952
G1 X128.754 Y118.517 E84.69723
G1 X121.134 Y110.896 E85.68475
G1 X120.695 Y111.348 E85.74245
G1 X128.301 Y118.954 E86.72815
G1 X127.848 Y119.392 E86.78586
G1 X120.256 Y111.799 E87.76974
G1 X119.817 Y112.251 E87.82745
G1 X127.395 Y119.829 E88.80951
G1 X126.942 Y120.267 E88.86722
G1 X119.378 Y112.702 E89.84746
G1 X118.939 Y113.154 E89.90517
G1 X126.489 Y120.705 E90.88359
G1 X126.036 Y121.142 E90.94130
G1 X118.500 Y113.606 E91.91790
G1 X118.061 Y114.057 E91.97560
G1 X125.583 Y121.580 E92.95038
G1 X125.130 Y122.017 E93.00809
G1 X117.622 Y114.509 E93.98105
G1 X117.183 Y114.960 E94.03876
G1 X124.677 Y122.455 E95.00990
G1 X124.224 Y122.892 E95.06761
G1 X116.744 Y115.412 E96.03693
G1 X116.305 Y115.863 E96.09463
G1 X123.771 Y123.330 E97.06214
G1 X123.318 Y123.767 E97.11984
G1 X115.866 Y116.315 E98.08553
G1 X115.427 Y116.767 E98.14323
G1 X122.866 Y124.205 E99.10709
G1 X122.413 Y124.642 E99.16480
G1 X114.988 Y117.218 E100.12684
G1 X114.549 Y117.670 E100.18455
G1 X121.960 Y125.080 E101.14477
G1 X121.507 Y125.517 E101.20248
G1 X114.111 Y118.121 E102.16088
G1 X113.672 Y118.573 E102.21858
G1 X121.054 Y125.955 E103.17517
G1 X120.601 Y126.393 E103.23287
G1 X113.233 Y119.025 E104.18764
G1 X112.794 Y119.476 E104.24534
G1 X120.148 Y126.830 E105.19828
G1 X119.695 Y127.268 E105.25599
G1 X112.355 Y119.928 E106.20711
G1 X111.916 Y120.379 E106.26482
G1 X119.242 Y127.705 E107.21412
G1 X118.789 Y128.143 E107.27183
G1 X111.477 Y120.831 E108.21931
G1 X111.038 Y121.283 E108.27701
G1 X118.336 Y128.580 E109.22267
G1 X117.883 Y129.018 E109.28038
G1 X110.599 Y121.734 E110.22422
G1 X110.186 Y122.159 E110.27850
G1 X113.700 Y125.574 E110.72750
G1 X113.623 Y125.649 E110.73731
G1 X114.177 Y126.202 E110.80907
G1 X113.710 Y126.627 E110.86684
G1 X113.170 Y126.086 E110.93686
G1 X112.717 Y126.524 E110.99456
G1 X113.244 Y127.051 E111.06283
G1 X112.777 Y127.475 E111.12060
G1 X112.264 Y126.961 E111.18712
G1 X111.811 Y127.399 E111.24483
G1 X112.311 Y127.899 E111.30961
G1 X111.844 Y128.323 E111.36737
G1 X111.358 Y127.836 E111.43040
G1 X110.905 Y128.274 E111.48811
G1 X111.378 Y128.747 E111.54939
G1 X110.912 Y129.171 E111.60715
G1 X110.253 Y128.513 E111.69246
G1 E109.69246 F2400.000
G92 E0
G1 X117.164 Y101.583 F7800.000
G1 E2.00000 F2400.000
G1 F1800.000
G1 X112.943 Y97.363 E2.54693
G1 X112.504 Y97.814 E2.60464
G1 X116.526 Y101.836 E3.12580
G1 X116.087 Y102.288 E3.18351
G1 X112.065 Y98.266 E3.70467
G1 X111.626 Y98.717 E3.76237
G1 X115.648 Y102.739 E4.28354
G1 X115.209 Y103.191 E4.34124
G1 X111.188 Y99.169 E4.86241
G1 X110.749 Y99.621 E4.92011
G1 X114.770 Y103.642 E5.44128
G1 X114.332 Y104.094 E5.49898
G1 X106.667 Y96.430 E6.49213
G1 X106.228 Y96.881 E6.54983
G1 X110.206 Y100.859 E7.06520
G1 X109.767 Y101.310 E7.12291
G1 X105.789 Y97.333 E7.63828
G1 X105.351 Y97.785 E7.69598
G1 X109.328 Y101.762 E8.21136
G1 X108.889 Y102.213 E8.26906
G1 X104.912 Y98.236 E8.78443
G1 X104.473 Y98.688 E8.84214
G1 X108.450 Y102.665 E9.35751
G1 X108.011 Y103.117 E9.41521
G1 X104.034 Y99.139 E9.93058
G1 X103.595 Y99.591 E9.98829
G1 X107.572 Y103.568 E10.50366
G1 X107.133 Y104.020 E10.56136
G1 X99.514 Y96.400 E11.54872
G1 X99.075 Y96.852 E11.60642
G1 X102.875 Y100.653 E12.09893
G1 X102.436 Y101.104 E12.15664
G1 X98.636 Y97.303 E12.64915
G1 X98.197 Y97.755 E12.70685
G1 X101.997 Y101.556 E13.19937
G1 X101.559 Y102.007 E13.25707
G1 X97.758 Y98.207 E13.74958
G1 X97.319 Y98.658 E13.80729
G1 X101.120 Y102.459 E14.29980
G1 X100.681 Y102.910 E14.35750
G1 X96.880 Y99.110 E14.85001
G1 X96.441 Y99.561 E14.90772
G1 X100.242 Y103.362 E15.40023
G1 X99.803 Y103.814 E15.45793
G1 X92.360 Y96.371 E16.42243
G1 X91.921 Y96.822 E16.48013
G1 X95.814 Y100.716 E16.98465
G1 X95.375 Y101.167 E17.04235
G1 X91.482 Y97.274 E17.54686
G1 X91.043 Y97.725 E17.60457
G1 X94.936 Y101.619 E18.10908
G1 X94.497 Y102.070 E18.16679
G1 X90.604 Y98.177 E18.67130
G1 X90.165 Y98.629 E18.72900
G1 X94.058 Y102.522 E19.23352
G1 X93.619 Y102.973 E19.29122
G1 X89.726 Y99.080 E19.79573
