; generated by PrusaSlicer 2.3.0+win64 on 2021-03-16 at 22:40:09 UTC

; 

; external perimeters extrusion width = 0.45mm
; perimeters extrusion width = 0.45mm
; infill extrusion width = 0.45mm
; solid infill extrusion width = 0.45mm
; top infill extrusion width = 0.40mm
; first layer extrusion width = 0.70mm

M107
M104 S200 ; set temperature
;TYPE:Custom
G28 ; home all axes
G1 Z5 F5000 ; lift nozzle
M109 S200 ; set temperature and wait for it to be reached
G21 ; set units to millimeters
G90 ; use absolute coordinates
M82 ; use absolute distances for extrusion
G92 E0
; Filament gcode
;LAYER_CHANGE
;Z:0.35
;HEIGHT:0.35
G1 Z0.350 F7800.000
G1 E-2.00000 F2400.000
G92 E0
G1 X92.223 Y92.390 F7800.000
G1 E2.00000 F2400.000
;TYPE:Skirt
;WIDTH:0.7
G1 F1800.000
G1 X93.086 Y91.606 E2.10601
G1 X94.002 Y90.932 E2.20941
G1 X95.767 Y89.992 E2.39124
G1 X96.854 Y89.602 E2.49624
G1 X97.826 Y89.358 E2.58740
G1 X98.826 Y89.204 E2.67941
G1 X99.967 Y89.142 E2.78327
G1 X101.970 Y89.325 E2.96617
G1 X103.262 Y89.646 E3.08724
G1 X104.216 Y89.995 E3.17963
G1 X105.181 Y90.457 E3.27691
G1 X106.079 Y91.000 E3.37227
G1 X107.652 Y92.288 E3.55716
G1 X108.338 Y93.032 E3.64916
G1 X108.984 Y93.884 E3.74638
G1 X109.692 Y95.074 E3.87229
G1 X110.116 Y96.005 E3.96533
G1 X110.478 Y97.061 E4.06686
G1 X110.707 Y98.035 E4.15780
G1 X110.895 Y100.045 E4.34138
G1 X110.709 Y102.053 E4.52476
G1 X110.483 Y103.015 E4.61460
G1 X110.120 Y104.081 E4.71700
G1 X109.538 Y105.312 E4.84087
G1 X109.006 Y106.180 E4.93337
G1 X108.349 Y107.050 E5.03252
G1 X107.648 Y107.812 E5.12662
G1 X106.071 Y109.101 E5.31188
G1 X105.217 Y109.619 E5.40267
G1 X104.235 Y110.092 E5.50185
G1 X103.208 Y110.466 E5.60117
G1 X101.981 Y110.769 E5.71610
G1 X99.944 Y110.954 E5.90212
G1 X98.895 Y110.899 E5.99761
G1 X97.770 Y110.726 E6.10114
G1 X95.803 Y110.119 E6.28825
G1 X94.019 Y109.174 E6.47184
G1 X93.070 Y108.476 E6.57900
G1 X92.204 Y107.686 E6.68554
G1 X91.504 Y106.901 E6.78123
G1 X90.898 Y106.073 E6.87454
G1 X90.388 Y105.220 E6.96490
G1 X89.871 Y104.119 E7.07545
G1 X89.293 Y102.182 E7.25926
G1 X89.145 Y101.218 E7.34800
G1 X89.084 Y100.086 E7.45110
G1 X89.150 Y98.842 E7.56433
G1 X89.300 Y97.882 E7.65270
G1 X89.882 Y95.947 E7.83644
G1 X90.317 Y95.008 E7.93053
G1 X90.932 Y93.973 E8.04002
G1 X92.185 Y92.436 E8.22029
G1 E6.22029 F2400.000
G92 E0
G1 X98.505 Y98.059 F7800.000
G1 E2.00000 F2400.000
;TYPE:Perimeter
G1 F1800.000
G1 X98.831 Y97.855 E2.03493
G1 X99.104 Y97.733 E2.06215
G1 X99.427 Y97.636 E2.09279
G1 X99.904 Y97.569 E2.13660
G1 X100.391 Y97.601 E2.18099
G1 X100.779 Y97.697 E2.21737
G1 X101.210 Y97.889 E2.26024
G1 X101.536 Y98.111 E2.29608
G1 X101.866 Y98.427 E2.33764
G1 X102.127 Y98.792 E2.37846
G1 X102.316 Y99.192 E2.41870
G1 X102.430 Y99.610 E2.45804
G1 X102.459 Y99.827 E2.47803
G1 X102.459 Y100.268 E2.51806
G1 X102.382 Y100.699 E2.55788
G1 X102.227 Y101.116 E2.59835
G1 X102.003 Y101.495 E2.63834
G1 X101.867 Y101.667 E2.65833
G1 X101.581 Y101.948 E2.69480
G1 X101.194 Y102.216 E2.73757
G1 X101.000 Y102.313 E2.75727
G1 X100.595 Y102.453 E2.79622
G1 X100.189 Y102.519 E2.83367
G1 X99.674 Y102.508 E2.88052
G1 X99.276 Y102.423 E2.91749
G1 X98.957 Y102.299 E2.94865
G1 X98.662 Y102.143 E2.97894
G1 X98.343 Y101.905 E3.01516
G1 X98.057 Y101.604 E3.05293
G1 X97.837 Y101.280 E3.08852
G1 X97.670 Y100.926 E3.12410
G1 X97.614 Y100.762 E3.13990
G1 X97.552 Y100.499 E3.16444
G1 X97.510 Y100.112 E3.19988
G1 X97.527 Y99.749 E3.23287
G1 X97.606 Y99.369 E3.26823
G1 X97.693 Y99.109 E3.29310
G1 X97.875 Y98.750 E3.32969
G1 X98.115 Y98.425 E3.36645
G1 X98.459 Y98.097 E3.40965
G1 X98.065 Y97.612 F7800.000
G1 F1800.000
G1 X98.337 Y97.417 E3.44004
G1 X98.548 Y97.297 E3.46206
G1 X98.885 Y97.146 E3.49571
G1 X99.280 Y97.027 E3.53321
G1 X99.637 Y96.962 E3.56618
G1 X100.141 Y96.947 E3.61199
G1 X100.486 Y96.982 E3.64352
G1 X100.735 Y97.033 E3.66663
G1 X100.983 Y97.106 E3.69022
G1 X101.283 Y97.226 E3.71957
G1 X101.704 Y97.460 E3.76334
G1 X101.927 Y97.623 E3.78850
G1 X102.158 Y97.825 E3.81640
G1 X102.340 Y98.019 E3.84061
G1 X102.520 Y98.249 E3.86716
G1 X102.667 Y98.475 E3.89165
G1 X102.903 Y98.975 E3.94195
G1 X103.045 Y99.499 E3.99130
G1 X103.082 Y99.772 E4.01633
G1 X103.082 Y100.323 E4.06643
G1 X102.985 Y100.863 E4.11631
G1 X102.902 Y101.123 E4.14112
G1 X102.792 Y101.385 E4.16700
G1 X102.511 Y101.859 E4.21711
G1 X102.341 Y102.076 E4.24213
G1 X101.978 Y102.432 E4.28834
G1 X101.726 Y102.622 E4.31708
G1 X101.498 Y102.762 E4.34143
G1 X101.255 Y102.884 E4.36608
G1 X100.748 Y103.059 E4.41488
G1 X100.231 Y103.144 E4.46252
G1 X99.859 Y103.150 E4.49641
G1 X99.595 Y103.128 E4.52044
G1 X99.084 Y103.018 E4.56800
G1 X98.697 Y102.869 E4.60574
G1 X98.339 Y102.679 E4.64256
G1 X97.929 Y102.373 E4.68913
G1 X97.569 Y101.996 E4.73645
G1 X97.287 Y101.578 E4.78233
G1 X97.090 Y101.162 E4.82422
G1 X97.012 Y100.935 E4.84603
G1 X96.935 Y100.605 E4.87684
G1 X96.884 Y100.144 E4.91897
G1 X96.908 Y99.657 E4.96330
G1 X97.002 Y99.205 E5.00530
G1 X97.111 Y98.881 E5.03641
G1 X97.215 Y98.651 E5.05935
G1 X97.489 Y98.205 E5.10699
G1 X97.649 Y98.007 E5.13011
G1 X98.019 Y97.649 E5.17688
G1 X97.625 Y97.164 F7800.000
;TYPE:External perimeter
G1 F1800.000
G1 X98.005 Y96.887 E5.21960
G1 X98.264 Y96.739 E5.24674
G1 X98.667 Y96.559 E5.28683
G1 X99.134 Y96.418 E5.33117
G1 X99.558 Y96.342 E5.37036
G1 X99.864 Y96.319 E5.39824
G1 X100.176 Y96.322 E5.42665
G1 X100.580 Y96.364 E5.46359
G1 X100.885 Y96.426 E5.49187
G1 X101.188 Y96.515 E5.52055
G1 X101.541 Y96.656 E5.55516
G1 X102.053 Y96.941 E5.60843
G1 X102.319 Y97.135 E5.63836
G1 X102.592 Y97.376 E5.67149
G1 X102.815 Y97.612 E5.70099
G1 X103.030 Y97.886 E5.73266
G1 X103.206 Y98.159 E5.76220
G1 X103.359 Y98.448 E5.79199
G1 X103.490 Y98.759 E5.82261
G1 X103.588 Y99.066 E5.85198
G1 X103.661 Y99.389 E5.88204
G1 X103.705 Y99.716 E5.91211
G1 X103.720 Y100.047 E5.94218
G1 X103.705 Y100.378 E5.97234
G1 X103.661 Y100.705 E6.00235
G1 X103.589 Y101.027 E6.03233
G1 X103.489 Y101.340 E6.06222
G1 X103.356 Y101.654 E6.09321
G1 X103.200 Y101.947 E6.12336
G1 X103.019 Y102.224 E6.15349
G1 X102.815 Y102.484 E6.18355
G1 X102.588 Y102.724 E6.21358
G1 X102.375 Y102.915 E6.23955
G1 X102.079 Y103.139 E6.27335
G1 X101.802 Y103.309 E6.30291
G1 X101.511 Y103.455 E6.33252
G1 X101.210 Y103.574 E6.36193
G1 X100.901 Y103.666 E6.39122
G1 X100.587 Y103.731 E6.42035
G1 X100.273 Y103.768 E6.44911
G1 X99.838 Y103.775 E6.48869
G1 X99.517 Y103.749 E6.51803
G1 X99.198 Y103.694 E6.54742
G1 X98.891 Y103.614 E6.57623
G1 X98.437 Y103.438 E6.62056
G1 X98.016 Y103.215 E6.66390
G1 X97.758 Y103.039 E6.69227
G1 X97.514 Y102.841 E6.72087
G1 X97.288 Y102.623 E6.74938
G1 X97.082 Y102.388 E6.77780
G1 X96.897 Y102.137 E6.80615
G1 X96.736 Y101.876 E6.83401
G1 X96.510 Y101.397 E6.88222
G1 X96.411 Y101.107 E6.91004
G1 X96.318 Y100.710 E6.94712
G1 X96.259 Y100.177 E6.99594
G1 X96.261 Y99.870 E7.02379
G1 X96.289 Y99.565 E7.05166
G1 X96.398 Y99.041 E7.10031
G1 X96.528 Y98.652 E7.13765
G1 X96.656 Y98.369 E7.16589
G1 X96.810 Y98.094 E7.19450
G1 X96.987 Y97.833 E7.22321
G1 X97.184 Y97.589 E7.25172
G1 X97.579 Y97.201 E7.30205
G1 X98.000 Y97.304 F7800.000
G1 E5.30205 F2400.000
G92 E0
G1 X102.190 Y99.441 F7800.000
G1 E2.00000 F2400.000
;TYPE:Solid infill
;WIDTH:0.737995
G1 F1800.000
G1 X101.180 Y98.431 E2.13778
G1 X101.102 Y98.374 E2.14711
G1 X100.832 Y98.224 E2.17683
G1 X100.472 Y98.097 E2.21370
G1 X100.079 Y98.041 E2.25200
G1 X99.859 Y98.048 E2.27324
G1 X101.990 Y100.179 E2.56403
G1 X101.928 Y100.575 E2.60267
G1 X101.797 Y100.923 E2.63855
G1 X99.121 Y98.247 E3.00357
G1 X98.915 Y98.349 E3.02574
G1 X98.676 Y98.525 E3.05434
G1 X98.569 Y98.633 E3.06899
G1 X101.403 Y101.467 E3.45554
G1 X101.281 Y101.586 E3.47195
G1 X100.963 Y101.805 E3.50925
G1 X100.853 Y101.855 E3.52085
G1 X98.180 Y99.181 E3.88556
G1 X98.057 Y99.501 E3.91861
G1 X97.982 Y99.921 E3.95974
G1 X100.104 Y102.043 E4.24919
G1 X99.896 Y102.054 E4.26930
G1 X99.552 Y102.010 E4.30276
G1 X99.152 Y101.872 E4.34359
G1 X98.905 Y101.741 E4.37053
G1 X98.756 Y101.632 E4.38829
G1 X97.794 Y100.670 E4.51959
;LAYER_CHANGE
;Z:0.65
;HEIGHT:0.3
G1 Z0.650 F7800.000
G1 X98.228 Y97.267
;TYPE:Perimeter
;WIDTH:0.45
G1 F900.000
G1 X98.569 Y97.081 E4.53824
G1 X98.885 Y96.947 E4.55479
G1 X99.089 Y96.883 E4.56505
G1 X99.599 Y96.782 E4.59008
G1 X99.807 Y96.764 E4.60008
G1 X100.259 Y96.773 E4.62185
G1 X100.783 Y96.858 E4.64737
G1 X100.998 Y96.921 E4.65813
G1 X101.461 Y97.113 E4.68227
G1 X101.891 Y97.371 E4.70640
G1 X102.055 Y97.496 E4.71628
G1 X102.418 Y97.842 E4.74041
G1 X102.726 Y98.237 E4.76454
G1 X102.834 Y98.412 E4.77441
G1 X103.056 Y98.882 E4.79942
G1 X103.123 Y99.076 E4.80929
G1 X103.237 Y99.584 E4.83430
G1 X103.259 Y99.786 E4.84407
G1 X103.257 Y100.335 E4.87047
G1 X103.226 Y100.583 E4.88252
G1 X103.171 Y100.846 E4.89545
G1 X102.999 Y101.355 E4.92128
G1 X102.746 Y101.829 E4.94711
G1 X102.591 Y102.049 E4.96004
G1 X102.242 Y102.436 E4.98513
G1 X101.810 Y102.781 E5.01172
G1 X101.341 Y103.043 E5.03756
G1 X101.091 Y103.144 E5.05049
G1 X100.572 Y103.283 E5.07634
G1 X100.038 Y103.336 E5.10220
G1 X99.769 Y103.330 E5.11513
G1 X99.237 Y103.251 E5.14099
G1 X98.977 Y103.180 E5.15393
G1 X98.480 Y102.974 E5.17979
G1 X98.024 Y102.691 E5.20566
G1 X97.619 Y102.336 E5.23153
G1 X97.278 Y101.921 E5.25740
G1 X97.134 Y101.693 E5.27034
G1 X96.903 Y101.207 E5.29621
G1 X96.756 Y100.690 E5.32209
G1 X96.694 Y100.156 E5.34796
G1 X96.696 Y99.886 E5.36091
G1 X96.764 Y99.365 E5.38618
G1 X96.874 Y98.982 E5.40536
G1 X97.039 Y98.579 E5.42628
G1 X97.309 Y98.131 E5.45145
G1 X97.658 Y97.720 E5.47742
G1 X97.821 Y97.569 E5.48809
G1 X98.180 Y97.303 E5.50958
G1 X98.020 Y96.941 F7800.000
G1 F900.000
G1 X98.401 Y96.734 E5.53043
G1 X98.752 Y96.585 E5.54877
G1 X98.993 Y96.509 E5.56094
G1 X99.545 Y96.399 E5.58802
G1 X99.794 Y96.378 E5.60002
G1 X100.286 Y96.388 E5.62371
G1 X100.616 Y96.428 E5.63970
G1 X100.877 Y96.484 E5.65251
G1 X101.126 Y96.556 E5.66497
G1 X101.635 Y96.768 E5.69151
G1 X102.108 Y97.052 E5.71803
G1 X102.305 Y97.202 E5.72996
G1 X102.705 Y97.582 E5.75648
G1 X103.044 Y98.017 E5.78300
G1 X103.173 Y98.228 E5.79492
G1 X103.414 Y98.737 E5.82198
G1 X103.494 Y98.971 E5.83390
G1 X103.617 Y99.520 E5.86096
G1 X103.645 Y99.765 E5.87282
G1 X103.642 Y100.359 E5.90138
G1 X103.607 Y100.646 E5.91529
G1 X103.546 Y100.940 E5.92973
G1 X103.353 Y101.509 E5.95860
G1 X103.071 Y102.038 E5.98746
G1 X102.898 Y102.284 E6.00191
G1 X102.506 Y102.717 E6.02999
G1 X102.266 Y102.926 E6.04528
G1 X102.025 Y103.102 E6.05968
G1 X101.768 Y103.259 E6.07413
G1 X101.222 Y103.507 E6.10300
G1 X100.642 Y103.663 E6.13189
G1 X100.044 Y103.722 E6.16077
G1 X99.744 Y103.715 E6.17523
G1 X99.149 Y103.627 E6.20412
G1 X98.860 Y103.547 E6.21858
G1 X98.304 Y103.318 E6.24748
G1 X97.794 Y103.001 E6.27638
G1 X97.342 Y102.605 E6.30528
G1 X96.960 Y102.141 E6.33418
G1 X96.660 Y101.620 E6.36309
G1 X96.542 Y101.343 E6.37756
G1 X96.377 Y100.765 E6.40647
G1 X96.308 Y100.168 E6.43538
G1 X96.311 Y99.867 E6.44985
G1 X96.388 Y99.279 E6.47838
G1 X96.509 Y98.856 E6.49958
G1 X96.690 Y98.414 E6.52254
G1 X96.995 Y97.906 E6.55102
G1 X97.385 Y97.447 E6.57999
G1 X97.574 Y97.271 E6.59240
G1 X97.972 Y96.977 E6.61620
G1 X97.812 Y96.615 F7800.000
;TYPE:External perimeter
G1 F900.000
G1 X98.233 Y96.386 E6.63926
G1 X98.618 Y96.223 E6.65939
G1 X98.897 Y96.135 E6.67345
G1 X99.491 Y96.017 E6.70259
G1 X99.782 Y95.992 E6.71660
G1 X100.314 Y96.003 E6.74220
G1 X100.680 Y96.048 E6.75995
G1 X100.971 Y96.110 E6.77425
G1 X101.254 Y96.192 E6.78843
G1 X101.809 Y96.422 E6.81735
G1 X102.325 Y96.732 E6.84627
G1 X102.556 Y96.908 E6.86024
G1 X102.991 Y97.323 E6.88916
G1 X103.361 Y97.797 E6.91808
G1 X103.513 Y98.044 E6.93204
G1 X103.772 Y98.591 E6.96115
G1 X103.866 Y98.866 E6.97512
G1 X103.998 Y99.457 E7.00423
G1 X104.030 Y99.745 E7.01818
G1 X104.028 Y100.384 E7.04890
G1 X103.988 Y100.709 E7.06466
G1 X103.920 Y101.034 E7.08062
G1 X103.827 Y101.352 E7.09658
G1 X103.707 Y101.662 E7.11255
G1 X103.563 Y101.961 E7.12851
G1 X103.395 Y102.247 E7.14447
G1 X103.204 Y102.518 E7.16044
G1 X102.991 Y102.773 E7.17640
G1 X102.771 Y102.998 E7.19154
G1 X102.507 Y103.227 E7.20835
G1 X102.239 Y103.423 E7.22430
G1 X101.956 Y103.596 E7.24026
G1 X101.660 Y103.746 E7.25623
G1 X101.352 Y103.870 E7.27220
G1 X101.035 Y103.970 E7.28817
G1 X100.711 Y104.043 E7.30414
G1 X100.382 Y104.089 E7.32012
G1 X100.051 Y104.108 E7.33609
G1 X99.719 Y104.100 E7.35207
G1 X99.388 Y104.065 E7.36804
G1 X99.062 Y104.003 E7.38402
G1 X98.742 Y103.915 E7.40000
G1 X98.430 Y103.801 E7.41597
G1 X98.128 Y103.661 E7.43195
G1 X97.839 Y103.498 E7.44793
G1 X97.564 Y103.311 E7.46392
G1 X97.306 Y103.103 E7.47990
G1 X97.065 Y102.874 E7.49588
G1 X96.843 Y102.626 E7.51186
G1 X96.643 Y102.360 E7.52785
G1 X96.465 Y102.080 E7.54383
G1 X96.311 Y101.785 E7.55982
G1 X96.181 Y101.479 E7.57580
G1 X96.077 Y101.164 E7.59179
G1 X95.999 Y100.841 E7.60778
G1 X95.947 Y100.512 E7.62376
G1 X95.923 Y100.181 E7.63975
G1 X95.925 Y99.849 E7.65574
G1 X95.955 Y99.517 E7.67172
G1 X96.012 Y99.193 E7.68757
G1 X96.144 Y98.729 E7.71077
G1 X96.341 Y98.248 E7.73579
G1 X96.499 Y97.959 E7.75161
G1 X96.681 Y97.681 E7.76760
G1 X96.886 Y97.419 E7.78358
G1 X97.112 Y97.175 E7.79959
G1 X97.328 Y96.974 E7.81375
G1 X97.764 Y96.651 E7.83986
G1 X98.165 Y96.804 F7800.000
G1 X101.346 Y102.911
;TYPE:Solid infill
;WIDTH:0.462662
G1 F1200.000
G1 X102.232 Y102.024 E7.90212
G1 X102.506 Y101.667 E7.92448
G1 X102.624 Y101.466 E7.93606
G1 X102.823 Y101.006 E7.96099
G1 X102.880 Y100.813 E7.97096
G1 X100.747 Y102.946 E8.12080
G1 X100.277 Y103.032 E8.14451
G1 X100.095 Y103.035 E8.15359
G1 X102.968 Y100.162 E8.35546
G1 X102.970 Y99.801 E8.37336
G1 X102.948 Y99.619 E8.38250
G1 X99.560 Y103.007 E8.62052
G1 X99.297 Y102.968 E8.63374
G1 X99.092 Y102.911 E8.64429
G1 X102.845 Y99.159 E8.90794
G1 X102.679 Y98.761 E8.92933
G1 X98.691 Y102.749 E9.20947
G1 X98.334 Y102.543 E9.22996
G1 X102.482 Y98.395 E9.52139
G1 X102.235 Y98.078 E9.54132
G1 X98.008 Y102.306 E9.83834
G1 X97.730 Y102.020 E9.85813
G1 X101.952 Y97.798 E10.15474
G1 X101.867 Y97.716 E10.16063
G1 X101.633 Y97.554 E10.17475
G1 X97.489 Y101.698 E10.46592
G1 X97.381 Y101.543 E10.47528
G1 X97.278 Y101.346 E10.48636
G1 X101.275 Y97.349 E10.76717
G1 X100.875 Y97.186 E10.78864
G1 X97.123 Y100.938 E11.05222
G1 X97.019 Y100.478 E11.07563
G1 X100.407 Y97.090 E11.31362
G1 X100.233 Y97.062 E11.32238
G1 X99.879 Y97.055 E11.33996
G1 X96.988 Y99.946 E11.54310
G1 X97.048 Y99.424 E11.56920
G1 X97.089 Y99.281 E11.57659
G1 X99.219 Y97.152 E11.72619
G1 X98.986 Y97.219 E11.73824
G1 X98.695 Y97.342 E11.75394
G1 X98.384 Y97.511 E11.77150
G1 X98.045 Y97.763 E11.79249
G1 X97.120 Y98.688 E11.85748
;LAYER_CHANGE
;Z:0.95
;HEIGHT:0.3
G1 Z0.950 F7800.000
G1 X98.298 Y97.353
;TYPE:Perimeter
;WIDTH:0.45
G1 F900.000
G1 X98.469 Y97.254 E11.86696
G1 X98.930 Y97.051 E11.89121
G1 X99.118 Y96.992 E11.90069
G1 X99.613 Y96.895 E11.92492
G1 X100.132 Y96.881 E11.94988
G1 X100.540 Y96.925 E11.96963
G1 X100.754 Y96.971 E11.98016
G1 X100.960 Y97.032 E11.99050
G1 X101.407 Y97.218 E12.01381
G1 X101.822 Y97.468 E12.03711
G1 X101.978 Y97.588 E12.04656
G1 X102.342 Y97.935 E12.07073
G1 X102.468 Y98.085 E12.08018
G1 X102.736 Y98.488 E12.10346
G1 X102.943 Y98.926 E12.12673
G1 X103.012 Y99.129 E12.13706
G1 X103.067 Y99.337 E12.14739
G1 X103.137 Y99.813 E12.17055
G1 X103.135 Y100.325 E12.19516
G1 X103.053 Y100.817 E12.21916
G1 X102.980 Y101.065 E12.23161
G1 X102.775 Y101.540 E12.25649
G1 X102.495 Y101.976 E12.28138
G1 X102.149 Y102.360 E12.30628
G1 X101.744 Y102.683 E12.33119
G1 X101.291 Y102.935 E12.35610
G1 X101.051 Y103.033 E12.36858
G1 X100.551 Y103.169 E12.39351
G1 X100.035 Y103.221 E12.41845
G1 X99.775 Y103.216 E12.43094
G1 X99.262 Y103.141 E12.45590
G1 X98.767 Y102.983 E12.48087
G1 X98.531 Y102.875 E12.49337
G1 X98.089 Y102.602 E12.51836
G1 X97.698 Y102.260 E12.54336
G1 X97.351 Y101.832 E12.56984
G1 X97.106 Y101.408 E12.59336
G1 X97.005 Y101.169 E12.60588
G1 X96.861 Y100.669 E12.63090
G1 X96.802 Y100.152 E12.65592
G1 X96.804 Y99.892 E12.66844
G1 X96.872 Y99.376 E12.69346
G1 X97.023 Y98.878 E12.71848
G1 X97.129 Y98.641 E12.73099
G1 X97.397 Y98.195 E12.75601
G1 X97.736 Y97.798 E12.78111
G1 X97.892 Y97.653 E12.79138
G1 X98.250 Y97.389 E12.81276
G1 X98.086 Y97.030 F7800.000
