; generated by PrusaSlicer 2.3.0+win64 on 2021-03-16 at 22:38:30 UTC

; 

; external perimeters extrusion width = 0.45mm
; perimeters extrusion width = 0.45mm
; infill extrusion width = 0.45mm
; solid infill extrusion width = 0.45mm
; top infill extrusion width = 0.40mm
; first layer extrusion width = 0.70mm

M107
M104 S200 ; set temperature
;TYPE:Custom
G28 ; home all axes
G1 Z5 F5000 ; lift nozzle
M109 S200 ; set temperature and wait for it to be reached
G21 ; set units to millimeters
G90 ; use absolute coordinates
M82 ; use absolute distances for extrusion
G92 E0
; Filament gcode
;LAYER_CHANGE
;Z:0.35
;HEIGHT:0.35
G1 Z0.350 F7800.000
G1 E-2.00000 F2400.000
G92 E0
G1 X91.945 Y91.753 F7800.000
G1 E2.00000 F2400.000
;TYPE:Skirt
;WIDTH:0.7
G1 F1800.000
G1 X92.909 Y90.913 E2.11628
G1 X93.761 Y90.308 E2.21126
G1 X94.675 Y89.778 E2.30734
G1 X95.804 Y89.268 E2.41999
G1 X97.818 Y88.686 E2.61063
G1 X98.915 Y88.531 E2.71134
G1 X100.144 Y88.480 E2.82315
G1 X102.247 Y88.702 E3.01545
G1 X103.458 Y89.012 E3.12916
G1 X104.443 Y89.372 E3.22452
G1 X105.388 Y89.820 E3.31957
G1 X106.464 Y90.467 E3.43375
G1 X107.303 Y91.093 E3.52892
G1 X108.107 Y91.821 E3.62752
G1 X108.922 Y92.719 E3.73785
G1 X109.564 Y93.585 E3.83587
G1 X110.155 Y94.571 E3.94036
G1 X110.692 Y95.723 E4.05594
G1 X111.295 Y97.755 E4.24869
G1 X111.474 Y99.001 E4.36315
G1 X111.516 Y100.079 E4.46128
G1 X111.312 Y102.164 E4.65171
G1 X110.993 Y103.434 E4.77079
G1 X110.602 Y104.503 E4.87432
G1 X110.097 Y105.544 E4.97951
G1 X109.528 Y106.473 E5.07858
G1 X108.709 Y107.541 E5.20095
G1 X108.002 Y108.290 E5.29459
G1 X107.166 Y109.024 E5.39577
G1 X106.280 Y109.662 E5.49508
G1 X105.373 Y110.194 E5.59071
G1 X104.182 Y110.738 E5.70973
G1 X102.131 Y111.327 E5.90372
G1 X101.115 Y111.473 E5.99711
G1 X99.902 Y111.526 E6.10750
G1 X98.563 Y111.438 E6.22949
G1 X97.546 Y111.265 E6.32329
G1 X95.511 Y110.621 E6.51744
G1 X93.640 Y109.618 E6.71049
G1 X92.607 Y108.850 E6.82748
G1 X91.769 Y108.077 E6.93114
G1 X91.068 Y107.294 E7.02673
G1 X90.333 Y106.286 E7.14019
G1 X89.673 Y105.134 E7.26088
G1 X89.248 Y104.172 E7.35648
G1 X88.902 Y103.139 E7.45562
G1 X88.656 Y102.082 E7.55426
G1 X88.516 Y101.051 E7.64884
G1 X88.471 Y99.774 E7.76505
G1 X88.544 Y98.680 E7.86472
G1 X88.716 Y97.624 E7.96207
G1 X88.978 Y96.612 E8.05709
G1 X89.405 Y95.457 E8.16903
G1 X89.998 Y94.267 E8.28994
G1 X90.552 Y93.393 E8.38409
G1 X91.222 Y92.525 E8.48378
G1 X91.904 Y91.796 E8.57451
G1 E6.57451 F2400.000
G92 E0
G1 X97.804 Y97.809 F7800.000
G1 E2.00000 F2400.000
;TYPE:Perimeter
G1 F1800.000
G1 X98.138 Y97.521 E2.04005
G1 X98.321 Y97.393 E2.06040
G1 X98.510 Y97.282 E2.08033
G1 X98.919 Y97.098 E2.12110
G1 X99.431 Y96.958 E2.16939
G1 X99.869 Y96.907 E2.20943
G1 X100.086 Y96.905 E2.22917
G1 X100.305 Y96.921 E2.24917
G1 X100.752 Y96.999 E2.29040
G1 X100.939 Y97.053 E2.30811
G1 X101.354 Y97.222 E2.34885
G1 X101.796 Y97.485 E2.39566
G1 X102.149 Y97.778 E2.43732
G1 X102.438 Y98.101 E2.47674
G1 X102.692 Y98.482 E2.51841
G1 X102.793 Y98.675 E2.53817
G1 X102.957 Y99.102 E2.57980
G1 X103.054 Y99.536 E2.62024
G1 X103.083 Y99.822 E2.64636
G1 X103.081 Y100.204 E2.68113
G1 X103.045 Y100.535 E2.71144
G1 X102.918 Y101.025 E2.75739
G1 X102.831 Y101.245 E2.77893
G1 X102.597 Y101.681 E2.82391
G1 X102.297 Y102.075 E2.86891
G1 X101.919 Y102.431 E2.91616
G1 X101.706 Y102.586 E2.94011
G1 X101.238 Y102.840 E2.98858
G1 X100.779 Y102.999 E3.03268
G1 X100.306 Y103.085 E3.07640
G1 X100.068 Y103.101 E3.09809
G1 X99.548 Y103.070 E3.14548
G1 X99.063 Y102.959 E3.19077
G1 X98.634 Y102.784 E3.23285
G1 X98.317 Y102.610 E3.26573
G1 X97.915 Y102.302 E3.31183
G1 X97.742 Y102.131 E3.33390
G1 X97.445 Y101.766 E3.37666
G1 X97.193 Y101.334 E3.42218
G1 X97.091 Y101.092 E3.44602
G1 X96.949 Y100.589 E3.49358
G1 X96.914 Y100.352 E3.51534
G1 X96.898 Y99.881 E3.55825
G1 X96.957 Y99.381 E3.60403
G1 X97.016 Y99.142 E3.62639
G1 X97.151 Y98.770 E3.66239
G1 X97.334 Y98.410 E3.69907
G1 X97.478 Y98.192 E3.72285
G1 X97.764 Y97.853 E3.76313
G1 X97.307 Y97.427 F7800.000
G1 F1800.000
G1 X97.753 Y97.028 E3.81760
G1 X98.223 Y96.726 E3.86833
G1 X98.691 Y96.515 E3.91499
G1 X98.950 Y96.428 E3.93986
G1 X99.324 Y96.341 E3.97477
G1 X99.830 Y96.282 E4.02108
G1 X100.381 Y96.300 E4.07125
G1 X100.892 Y96.389 E4.11841
G1 X101.143 Y96.461 E4.14219
G1 X101.622 Y96.656 E4.18920
G1 X101.947 Y96.834 E4.22288
G1 X102.171 Y96.984 E4.24739
G1 X102.574 Y97.319 E4.29499
G1 X102.940 Y97.727 E4.34488
G1 X103.230 Y98.163 E4.39250
G1 X103.358 Y98.406 E4.41748
G1 X103.560 Y98.933 E4.46876
G1 X103.672 Y99.436 E4.51561
G1 X103.708 Y99.792 E4.54814
G1 X103.706 Y100.240 E4.58890
G1 X103.663 Y100.635 E4.62506
G1 X103.599 Y100.932 E4.65269
G1 X103.508 Y101.231 E4.68110
G1 X103.398 Y101.509 E4.70824
G1 X103.131 Y102.007 E4.75967
G1 X102.961 Y102.252 E4.78672
G1 X102.763 Y102.493 E4.81511
G1 X102.544 Y102.716 E4.84352
G1 X102.308 Y102.921 E4.87197
G1 X102.053 Y103.106 E4.90062
G1 X101.497 Y103.410 E4.95825
G1 X101.213 Y103.522 E4.98595
G1 X100.925 Y103.608 E5.01330
G1 X100.383 Y103.706 E5.06337
G1 X100.084 Y103.726 E5.09064
G1 X99.771 Y103.721 E5.11915
G1 X99.459 Y103.689 E5.14768
G1 X99.150 Y103.631 E5.17623
G1 X98.861 Y103.551 E5.20350
G1 X98.364 Y103.349 E5.25224
G1 X97.987 Y103.141 E5.29147
G1 X97.737 Y102.966 E5.31920
G1 X97.495 Y102.765 E5.34782
G1 X97.279 Y102.552 E5.37539
G1 X96.938 Y102.134 E5.42443
G1 X96.776 Y101.881 E5.45181
G1 X96.629 Y101.602 E5.48042
G1 X96.505 Y101.312 E5.50908
G1 X96.407 Y101.013 E5.53771
G1 X96.335 Y100.707 E5.56632
G1 X96.291 Y100.409 E5.59367
G1 X96.272 Y99.868 E5.64288
G1 X96.294 Y99.566 E5.67043
G1 X96.344 Y99.256 E5.69904
G1 X96.418 Y98.960 E5.72677
G1 X96.571 Y98.536 E5.76771
G1 X96.797 Y98.089 E5.81332
G1 X96.970 Y97.826 E5.84190
G1 X97.266 Y97.471 E5.88393
G1 X96.809 Y97.044 F7800.000
;TYPE:External perimeter
G1 F1800.000
G1 X96.937 Y96.908 E5.90094
G1 X97.369 Y96.534 E5.95290
G1 X97.645 Y96.341 E5.98358
G1 X97.935 Y96.170 E6.01415
G1 X98.462 Y95.933 E6.06671
G1 X98.779 Y95.827 E6.09711
G1 X99.216 Y95.725 E6.13792
G1 X99.791 Y95.658 E6.19051
G1 X100.125 Y95.655 E6.22086
G1 X100.457 Y95.679 E6.25119
G1 X101.032 Y95.779 E6.30427
G1 X101.348 Y95.870 E6.33413
G1 X101.891 Y96.091 E6.38741
G1 X102.272 Y96.299 E6.42691
G1 X102.546 Y96.483 E6.45692
G1 X102.999 Y96.859 E6.51047
G1 X103.230 Y97.098 E6.54067
G1 X103.442 Y97.354 E6.57088
G1 X103.769 Y97.844 E6.62445
G1 X103.923 Y98.138 E6.65464
G1 X104.056 Y98.449 E6.68541
G1 X104.162 Y98.764 E6.71561
G1 X104.290 Y99.336 E6.76887
G1 X104.333 Y99.762 E6.80782
G1 X104.331 Y100.276 E6.85456
G1 X104.280 Y100.735 E6.89657
G1 X104.205 Y101.089 E6.92947
G1 X104.099 Y101.438 E6.96266
G1 X103.966 Y101.773 E6.99541
G1 X103.665 Y102.334 E7.05329
G1 X103.460 Y102.629 E7.08596
G1 X103.228 Y102.911 E7.11913
G1 X102.973 Y103.172 E7.15232
G1 X102.697 Y103.411 E7.18556
G1 X102.400 Y103.626 E7.21892
G1 X101.756 Y103.979 E7.28569
G1 X101.418 Y104.113 E7.31873
G1 X101.071 Y104.217 E7.35165
G1 X100.460 Y104.327 E7.40808
G1 X100.100 Y104.352 E7.44092
G1 X99.734 Y104.345 E7.47423
G1 X99.369 Y104.308 E7.50757
G1 X99.009 Y104.241 E7.54093
G1 X98.659 Y104.144 E7.57389
G1 X98.095 Y103.914 E7.62929
G1 X97.656 Y103.672 E7.67487
G1 X97.357 Y103.464 E7.70799
G1 X97.075 Y103.228 E7.74143
G1 X96.816 Y102.973 E7.77449
G1 X96.432 Y102.501 E7.82982
G1 X96.236 Y102.196 E7.86280
G1 X96.064 Y101.871 E7.89623
G1 X95.920 Y101.532 E7.92971
G1 X95.805 Y101.182 E7.96316
G1 X95.721 Y100.825 E7.99658
G1 X95.668 Y100.466 E8.02954
G1 X95.646 Y99.856 E8.08505
G1 X95.673 Y99.494 E8.11810
G1 X95.731 Y99.131 E8.15153
G1 X95.819 Y98.777 E8.18464
G1 X95.991 Y98.303 E8.23053
G1 X96.261 Y97.767 E8.28506
G1 X96.463 Y97.461 E8.31844
G1 X96.768 Y97.088 E8.36222
G1 X96.992 Y97.080 F7800.000
G1 E6.36222 F2400.000
G92 E0
G1 X102.736 Y99.048 F7800.000
G1 E2.00000 F2400.000
;TYPE:Solid infill
;WIDTH:0.728594
G1 F1800.000
G1 X101.710 Y98.023 E2.13794
G1 X101.379 Y97.770 E2.17752
G1 X101.152 Y97.646 E2.20209
G1 X100.785 Y97.496 E2.23978
G1 X100.257 Y97.388 E2.29107
G1 X100.148 Y97.385 E2.30146
G1 X102.614 Y99.851 E2.63319
G1 X102.613 Y100.177 E2.66418
G1 X102.583 Y100.451 E2.69031
G1 X102.522 Y100.684 E2.71320
G1 X99.307 Y97.468 E3.14561
G1 X99.090 Y97.535 E3.16719
G1 X98.659 Y97.744 E3.21278
G1 X102.250 Y101.335 E3.69577
G1 X102.201 Y101.427 E3.70562
G1 X101.851 Y101.861 E3.75864
G1 X98.134 Y98.144 E4.25849
G1 X98.002 Y98.285 E4.27690
G1 X97.731 Y98.664 E4.32124
G1 X101.326 Y102.259 E4.80469
G1 X101.048 Y102.410 E4.83476
G1 X100.680 Y102.538 E4.87177
G1 X97.459 Y99.317 E5.30492
G1 X97.381 Y99.703 E5.34241
G1 X97.376 Y100.158 E5.38568
G1 X99.836 Y102.618 E5.71646
G1 X99.615 Y102.605 E5.73751
G1 X99.204 Y102.510 E5.77757
G1 X98.836 Y102.361 E5.81536
G1 X98.575 Y102.216 E5.84379
G1 X98.301 Y102.007 E5.87659
G1 X97.253 Y100.959 E6.01747
;LAYER_CHANGE
;Z:0.65
;HEIGHT:0.3
G1 Z0.650 F7800.000
G1 X97.143 Y97.352
;TYPE:Perimeter
;WIDTH:0.45
G1 F900.000
G1 X97.449 Y97.053 E6.03807
G1 X97.673 Y96.874 E6.05186
G1 X98.157 Y96.568 E6.07942
G1 X98.415 Y96.442 E6.09321
G1 X98.672 Y96.340 E6.10650
G1 X99.063 Y96.225 E6.12609
G1 X99.531 Y96.137 E6.14900
G1 X99.792 Y96.115 E6.16161
G1 X100.204 Y96.119 E6.18145
G1 X100.673 Y96.170 E6.20411
G1 X101.215 Y96.307 E6.23101
G1 X101.484 Y96.407 E6.24480
G1 X101.995 Y96.665 E6.27236
G1 X102.236 Y96.821 E6.28615
G1 X102.678 Y97.185 E6.31371
G1 X103.063 Y97.610 E6.34126
G1 X103.231 Y97.842 E6.35505
G1 X103.513 Y98.341 E6.38261
G1 X103.719 Y98.875 E6.41017
G1 X103.792 Y99.153 E6.42395
G1 X103.875 Y99.717 E6.45139
G1 X103.872 Y100.326 E6.48071
G1 X103.833 Y100.640 E6.49591
G1 X103.769 Y100.952 E6.51123
G1 X103.678 Y101.258 E6.52655
G1 X103.564 Y101.555 E6.54187
G1 X103.425 Y101.841 E6.55719
G1 X103.263 Y102.116 E6.57251
G1 X103.080 Y102.376 E6.58783
G1 X102.876 Y102.621 E6.60315
G1 X102.652 Y102.848 E6.61847
G1 X102.411 Y103.056 E6.63380
G1 X102.154 Y103.243 E6.64912
G1 X101.882 Y103.409 E6.66444
G1 X101.597 Y103.552 E6.67976
G1 X101.302 Y103.672 E6.69508
G1 X100.998 Y103.767 E6.71040
G1 X100.687 Y103.836 E6.72573
G1 X100.371 Y103.880 E6.74105
G1 X100.053 Y103.898 E6.75637
G1 X99.735 Y103.891 E6.77170
G1 X99.418 Y103.857 E6.78702
G1 X99.105 Y103.797 E6.80234
G1 X98.798 Y103.712 E6.81767
G1 X98.499 Y103.602 E6.83299
G1 X98.210 Y103.468 E6.84832
G1 X97.933 Y103.311 E6.86364
G1 X97.669 Y103.131 E6.87896
G1 X97.421 Y102.931 E6.89429
G1 X97.191 Y102.711 E6.90961
G1 X96.979 Y102.473 E6.92494
G1 X96.787 Y102.219 E6.94026
G1 X96.617 Y101.950 E6.95559
G1 X96.469 Y101.667 E6.97091
G1 X96.345 Y101.374 E6.98624
G1 X96.248 Y101.081 E7.00107
G1 X96.151 Y100.640 E7.02280
G1 X96.098 Y100.129 E7.04750
G1 X96.101 Y99.810 E7.06282
G1 X96.129 Y99.504 E7.07764
G1 X96.216 Y99.056 E7.09959
G1 X96.369 Y98.570 E7.12408
G1 X96.499 Y98.279 E7.13941
G1 X96.651 Y97.999 E7.15473
G1 X96.826 Y97.733 E7.17005
G1 X97.102 Y97.396 E7.19098
G1 X96.859 Y97.091 F7800.000
G1 F900.000
G1 X97.197 Y96.761 E7.21370
G1 X97.443 Y96.564 E7.22886
G1 X97.703 Y96.386 E7.24401
G1 X98.259 Y96.089 E7.27431
G1 X98.546 Y95.975 E7.28916
G1 X98.972 Y95.850 E7.31055
G1 X99.478 Y95.754 E7.33531
G1 X99.777 Y95.729 E7.34974
G1 X100.227 Y95.733 E7.37138
G1 X100.734 Y95.788 E7.39589
G1 X101.336 Y95.940 E7.42578
G1 X101.632 Y96.050 E7.44093
G1 X102.194 Y96.334 E7.47122
G1 X102.458 Y96.506 E7.48637
G1 X102.944 Y96.905 E7.51666
G1 X103.367 Y97.372 E7.54695
G1 X103.552 Y97.628 E7.56210
G1 X103.862 Y98.176 E7.59239
G1 X104.088 Y98.763 E7.62268
G1 X104.168 Y99.068 E7.63783
G1 X104.260 Y99.690 E7.66804
G1 X104.257 Y100.357 E7.70015
G1 X104.214 Y100.703 E7.71692
G1 X104.143 Y101.046 E7.73376
G1 X104.044 Y101.382 E7.75060
G1 X103.918 Y101.708 E7.76743
G1 X103.765 Y102.023 E7.78427
G1 X103.588 Y102.325 E7.80111
G1 X103.386 Y102.611 E7.81795
G1 X103.162 Y102.880 E7.83479
G1 X102.916 Y103.130 E7.85163
G1 X102.651 Y103.358 E7.86846
G1 X102.368 Y103.564 E7.88530
G1 X102.069 Y103.747 E7.90214
G1 X101.756 Y103.904 E7.91898
G1 X101.432 Y104.035 E7.93582
G1 X101.097 Y104.139 E7.95266
G1 X100.756 Y104.216 E7.96951
G1 X100.409 Y104.264 E7.98635
G1 X100.059 Y104.284 E8.00319
G1 X99.709 Y104.276 E8.02003
G1 X99.361 Y104.238 E8.03687
G1 X99.017 Y104.173 E8.05371
G1 X98.680 Y104.079 E8.07056
G1 X98.351 Y103.958 E8.08740
G1 X98.033 Y103.811 E8.10424
G1 X97.729 Y103.638 E8.12108
G1 X97.439 Y103.441 E8.13793
G1 X97.167 Y103.221 E8.15477
G1 X96.913 Y102.980 E8.17161
G1 X96.680 Y102.718 E8.18846
G1 X96.469 Y102.438 E8.20530
G1 X96.282 Y102.143 E8.22214
G1 X96.120 Y101.832 E8.23899
G1 X95.983 Y101.510 E8.25583
G1 X95.876 Y101.183 E8.27237
G1 X95.772 Y100.711 E8.29562
G1 X95.712 Y100.141 E8.32316
G1 X95.715 Y99.791 E8.34001
G1 X95.746 Y99.449 E8.35654
G1 X95.840 Y98.970 E8.38001
G1 X96.011 Y98.428 E8.40734
G1 X96.153 Y98.108 E8.42418
G1 X96.321 Y97.801 E8.44102
G1 X96.513 Y97.508 E8.45786
G1 X96.818 Y97.135 E8.48106
G1 X96.576 Y96.829 F7800.000
;TYPE:External perimeter
G1 F900.000
G1 X96.945 Y96.468 E8.50591
G1 X97.214 Y96.254 E8.52243
G1 X97.497 Y96.060 E8.53896
G1 X97.794 Y95.887 E8.55548
G1 X98.103 Y95.736 E8.57200
G1 X98.420 Y95.610 E8.58841
G1 X98.882 Y95.474 E8.61160
G1 X99.426 Y95.372 E8.63821
G1 X99.763 Y95.343 E8.65447
G1 X100.250 Y95.348 E8.67790
G1 X100.795 Y95.407 E8.70426
G1 X101.128 Y95.478 E8.72064
G1 X101.458 Y95.574 E8.73716
G1 X101.780 Y95.694 E8.75368
G1 X102.092 Y95.837 E8.77020
G1 X102.393 Y96.003 E8.78672
G1 X102.680 Y96.190 E8.80324
G1 X102.954 Y96.398 E8.81976
G1 X103.211 Y96.626 E8.83628
G1 X103.450 Y96.872 E8.85280
G1 X103.671 Y97.135 E8.86932
G1 X103.872 Y97.414 E8.88584
G1 X104.053 Y97.706 E8.90236
G1 X104.211 Y98.011 E8.91888
G1 X104.346 Y98.327 E8.93540
G1 X104.457 Y98.652 E8.95192
G1 X104.545 Y98.984 E8.96844
G1 X104.607 Y99.322 E8.98496
G1 X104.645 Y99.662 E9.00145
G1 X104.642 Y100.388 E9.03635
G1 X104.595 Y100.766 E9.05468
G1 X104.517 Y101.140 E9.07304
G1 X104.409 Y101.506 E9.09139
G1 X104.272 Y101.862 E9.10975
G1 X104.106 Y102.206 E9.12810
G1 X103.912 Y102.534 E9.14646
G1 X103.692 Y102.846 E9.16481
G1 X103.448 Y103.139 E9.18317
G1 X103.180 Y103.411 E9.20153
G1 X102.891 Y103.661 E9.21989
G1 X102.582 Y103.885 E9.23824
G1 X102.256 Y104.084 E9.25660
G1 X101.915 Y104.256 E9.27496
G1 X101.561 Y104.399 E9.29332
G1 X101.197 Y104.512 E9.31168
G1 X100.825 Y104.596 E9.33004
G1 X100.447 Y104.649 E9.34840
G1 X100.065 Y104.670 E9.36676
G1 X99.684 Y104.661 E9.38512
G1 X99.304 Y104.620 E9.40348
G1 X98.929 Y104.549 E9.42184
G1 X98.561 Y104.447 E9.44020
G1 X98.203 Y104.315 E9.45856
G1 X97.857 Y104.154 E9.47692
G1 X97.525 Y103.966 E9.49528
G1 X97.209 Y103.751 E9.51364
G1 X96.912 Y103.511 E9.53200
G1 X96.636 Y103.248 E9.55037
G1 X96.382 Y102.963 E9.56873
G1 X96.152 Y102.658 E9.58709
G1 X95.948 Y102.335 E9.60545
G1 X95.771 Y101.997 E9.62381
G1 X95.622 Y101.645 E9.64217
G1 X95.503 Y101.285 E9.66043
G1 X95.393 Y100.782 E9.68519
G1 X95.326 Y100.154 E9.71558
G1 X95.330 Y99.772 E9.73394
G1 X95.364 Y99.394 E9.75219
G1 X95.464 Y98.884 E9.77718
G1 X95.652 Y98.286 E9.80734
G1 X95.807 Y97.937 E9.82570
G1 X95.990 Y97.602 E9.84406
G1 X96.199 Y97.283 E9.86242
G1 X96.535 Y96.873 E9.88790
G1 X96.966 Y96.918 F7800.000
G1 X101.721 Y103.361
;TYPE:Solid infill
;WIDTH:0.463547
G1 F1200.000
G1 X102.693 Y102.388 E9.95638
G1 X102.850 Y102.200 E9.96858
G1 X103.170 Y101.705 E9.99792
G1 X103.298 Y101.439 E10.01260
G1 X103.426 Y101.091 E10.03109
G1 X101.078 Y103.438 E10.19638
G1 X100.635 Y103.552 E10.21917
G1 X100.363 Y103.590 E10.23285
G1 X103.574 Y100.378 E10.45897
G1 X103.585 Y99.802 E10.48763
G1 X99.785 Y103.603 E10.75519
G1 X99.286 Y103.537 E10.78025
G1 X103.521 Y99.302 E11.07843
G1 X103.402 Y98.857 E11.10137
G1 X98.840 Y103.419 E11.42257
G1 X98.439 Y103.255 E11.44413
G1 X103.244 Y98.450 E11.78243
G1 X103.037 Y98.092 E11.80301
G1 X98.073 Y103.057 E12.15253
G1 X97.745 Y102.821 E12.17267
G1 X102.809 Y97.757 E12.52921
G1 X102.542 Y97.459 E12.54912
G1 X97.446 Y102.555 E12.90791
G1 X97.178 Y102.258 E12.92782
G1 X102.239 Y97.198 E13.28409
G1 X102.068 Y97.058 E13.29505
G1 X101.909 Y96.962 E13.30429
G1 X96.945 Y101.927 E13.65385
G1 X96.742 Y101.565 E13.67449
G1 X101.549 Y96.758 E14.01296
G1 X101.150 Y96.593 E14.03446
G1 X96.580 Y101.163 E14.35626
