; generated by PrusaSlicer 2.3.0+win64 on 2021-03-16 at 22:40:43 UTC

; 

; external perimeters extrusion width = 0.45mm
; perimeters extrusion width = 0.45mm
; infill extrusion width = 0.45mm
; solid infill extrusion width = 0.45mm
; top infill extrusion width = 0.40mm
; first layer extrusion width = 0.70mm

M107
M104 S200 ; set temperature
;TYPE:Custom
G28 ; home all axes
G1 Z5 F5000 ; lift nozzle
M109 S200 ; set temperature and wait for it to be reached
G21 ; set units to millimeters
G90 ; use absolute coordinates
M82 ; use absolute distances for extrusion
G92 E0
; Filament gcode
;LAYER_CHANGE
;Z:0.35
;HEIGHT:0.35
G1 Z0.350 F7800.000
G1 E-2.00000 F2400.000
G92 E0
G1 X91.581 Y92.216 F7800.000
G1 E2.00000 F2400.000
;TYPE:Skirt
;WIDTH:0.7
G1 F1800.000
G1 X92.532 Y91.376 E2.11535
G1 X93.372 Y90.774 E2.20936
G1 X95.193 Y89.828 E2.39597
G1 X96.176 Y89.482 E2.49070
G1 X97.203 Y89.229 E2.58685
G1 X98.186 Y89.083 E2.67723
G1 X99.497 Y89.025 E2.79654
G1 X100.582 Y89.095 E2.89543
G1 X101.568 Y89.255 E2.98624
G1 X102.591 Y89.521 E3.08238
G1 X103.590 Y89.887 E3.17913
G1 X104.549 Y90.350 E3.27600
G1 X105.645 Y91.029 E3.39316
G1 X106.488 Y91.685 E3.49032
G1 X107.229 Y92.387 E3.58313
G1 X107.905 Y93.158 E3.67641
G1 X108.523 Y94.017 E3.77255
G1 X109.053 Y94.926 E3.86829
G1 X109.575 Y96.087 E3.98401
G1 X109.910 Y97.108 E4.08176
G1 X110.136 Y98.120 E4.17598
G1 X110.296 Y100.138 E4.36006
G1 X110.075 Y102.186 E4.54734
G1 X109.749 Y103.422 E4.66365
G1 X109.388 Y104.374 E4.75623
G1 X108.379 Y106.201 E4.94597
G1 X107.778 Y106.997 E5.03668
G1 X107.026 Y107.816 E5.13775
G1 X106.068 Y108.656 E5.25365
G1 X105.243 Y109.242 E5.34564
G1 X104.327 Y109.768 E5.44169
G1 X103.351 Y110.210 E5.53908
G1 X101.370 Y110.783 E5.72664
G1 X100.094 Y110.948 E5.84364
G1 X99.051 Y110.973 E5.93852
G1 X96.982 Y110.725 E6.12795
G1 X95.017 Y110.097 E6.31552
G1 X94.130 Y109.670 E6.40507
G1 X92.996 Y108.971 E6.52616
G1 X92.132 Y108.296 E6.62589
G1 X91.404 Y107.605 E6.71719
G1 X90.742 Y106.849 E6.80849
G1 X90.101 Y105.957 E6.90840
G1 X89.583 Y105.063 E7.00238
G1 X89.056 Y103.888 E7.11943
G1 X88.508 Y101.897 E7.30727
G1 X88.345 Y99.822 E7.49648
G1 X88.561 Y97.834 E7.67837
G1 X88.881 Y96.609 E7.79351
G1 X89.242 Y95.650 E7.88666
G1 X90.232 Y93.842 E8.07403
G1 X90.849 Y93.019 E8.16760
G1 X91.541 Y92.261 E8.26093
G1 E6.26093 F2400.000
G92 E0
G1 X97.203 Y98.576 F7800.000
G1 E2.00000 F2400.000
;TYPE:Perimeter
G1 F1800.000
G1 X97.475 Y98.238 E2.03953
G1 X97.797 Y97.953 E2.07862
G1 X98.015 Y97.808 E2.10240
G1 X98.354 Y97.639 E2.13686
G1 X98.796 Y97.503 E2.17887
G1 X99.203 Y97.451 E2.21620
G1 X99.463 Y97.453 E2.23988
G1 X99.839 Y97.502 E2.27436
G1 X100.282 Y97.636 E2.31641
G1 X100.648 Y97.821 E2.35374
G1 X101.020 Y98.097 E2.39578
G1 X101.283 Y98.370 E2.43026
G1 X101.439 Y98.578 E2.45396
G1 X101.640 Y98.937 E2.49129
G1 X101.793 Y99.372 E2.53328
G1 X101.858 Y99.744 E2.56763
G1 X101.871 Y100.006 E2.59147
G1 X101.837 Y100.420 E2.62920
G1 X101.777 Y100.685 E2.65399
G1 X101.648 Y101.044 E2.68864
G1 X101.429 Y101.437 E2.72953
G1 X101.159 Y101.769 E2.76843
G1 X101.003 Y101.918 E2.78802
G1 X100.641 Y102.182 E2.82881
G1 X100.477 Y102.272 E2.84582
G1 X100.065 Y102.438 E2.88622
G1 X99.837 Y102.498 E2.90758
G1 X99.417 Y102.549 E2.94611
G1 X99.202 Y102.548 E2.96567
G1 X98.775 Y102.492 E3.00476
G1 X98.363 Y102.365 E3.04397
G1 X97.972 Y102.165 E3.08391
G1 X97.638 Y101.918 E3.12177
G1 X97.325 Y101.589 E3.16299
G1 X97.108 Y101.269 E3.19818
G1 X96.997 Y101.054 E3.22021
G1 X96.856 Y100.659 E3.25827
G1 X96.780 Y100.233 E3.29766
G1 X96.769 Y100.014 E3.31757
G1 X96.802 Y99.591 E3.35615
G1 X96.921 Y99.134 E3.39909
G1 X97.002 Y98.935 E3.41866
G1 X97.171 Y98.627 E3.45057
G1 X96.639 Y98.299 F7800.000
G1 F1800.000
G1 X96.828 Y98.031 E3.48042
G1 X97.022 Y97.807 E3.50733
G1 X97.427 Y97.448 E3.55657
G1 X97.689 Y97.274 E3.58516
G1 X98.118 Y97.059 E3.62874
G1 X98.663 Y96.892 E3.68063
G1 X99.178 Y96.826 E3.72786
G1 X99.492 Y96.828 E3.75637
G1 X99.967 Y96.890 E3.79997
G1 X100.514 Y97.055 E3.85188
G1 X100.977 Y97.289 E3.89910
G1 X101.435 Y97.630 E3.95101
G1 X101.768 Y97.975 E3.99460
G1 X101.956 Y98.226 E4.02312
G1 X102.210 Y98.679 E4.07035
G1 X102.399 Y99.218 E4.12223
G1 X102.481 Y99.689 E4.16574
G1 X102.497 Y100.003 E4.19436
G1 X102.453 Y100.528 E4.24223
G1 X102.381 Y100.846 E4.27187
G1 X102.219 Y101.300 E4.31575
G1 X101.946 Y101.787 E4.36649
G1 X101.610 Y102.202 E4.41508
G1 X101.209 Y102.554 E4.46360
G1 X100.745 Y102.838 E4.51303
G1 X100.261 Y103.032 E4.56041
G1 X99.968 Y103.109 E4.58796
G1 X99.441 Y103.174 E4.63630
G1 X99.173 Y103.173 E4.66066
G1 X98.642 Y103.103 E4.70934
G1 X98.130 Y102.945 E4.75809
G1 X97.647 Y102.700 E4.80735
G1 X97.224 Y102.386 E4.85523
G1 X96.837 Y101.981 E4.90617
G1 X96.563 Y101.577 E4.95053
G1 X96.428 Y101.314 E4.97737
G1 X96.251 Y100.817 E5.02542
G1 X96.157 Y100.288 E5.07428
G1 X96.144 Y100.018 E5.09885
G1 X96.185 Y99.488 E5.14722
G1 X96.253 Y99.175 E5.17633
G1 X96.332 Y98.922 E5.20039
G1 X96.433 Y98.674 E5.22475
G1 X96.608 Y98.350 E5.25817
G1 X96.076 Y98.022 F7800.000
;TYPE:External perimeter
G1 F1800.000
G1 X96.339 Y97.641 E5.30034
G1 X96.568 Y97.376 E5.33214
G1 X96.813 Y97.141 E5.36305
G1 X97.057 Y96.944 E5.39158
G1 X97.363 Y96.741 E5.42498
G1 X97.881 Y96.480 E5.47768
G1 X98.177 Y96.374 E5.50628
G1 X98.530 Y96.280 E5.53951
G1 X98.840 Y96.228 E5.56805
G1 X99.154 Y96.201 E5.59668
G1 X99.520 Y96.203 E5.63003
G1 X100.095 Y96.277 E5.68274
G1 X100.400 Y96.355 E5.71134
G1 X100.745 Y96.474 E5.74457
G1 X101.032 Y96.604 E5.77316
G1 X101.306 Y96.757 E5.80174
G1 X101.608 Y96.963 E5.83497
G1 X101.851 Y97.163 E5.86357
G1 X102.253 Y97.581 E5.91628
G1 X102.473 Y97.874 E5.94963
G1 X102.638 Y98.142 E5.97825
G1 X102.780 Y98.422 E6.00680
G1 X102.915 Y98.762 E6.04003
G1 X103.005 Y99.063 E6.06862
G1 X103.104 Y99.634 E6.12130
G1 X103.122 Y100.001 E6.15468
G1 X103.109 Y100.320 E6.18379
G1 X103.069 Y100.636 E6.21275
G1 X102.908 Y101.258 E6.27116
G1 X102.789 Y101.557 E6.30035
G1 X102.646 Y101.843 E6.32946
G1 X102.464 Y102.138 E6.36100
G1 X102.273 Y102.396 E6.39016
G1 X102.060 Y102.636 E6.41934
G1 X101.828 Y102.858 E6.44853
G1 X101.579 Y103.059 E6.47764
G1 X101.290 Y103.252 E6.50925
G1 X101.013 Y103.404 E6.53799
G1 X100.458 Y103.627 E6.59236
G1 X100.099 Y103.721 E6.62610
G1 X99.784 Y103.773 E6.65513
G1 X99.464 Y103.799 E6.68429
G1 X99.144 Y103.798 E6.71345
G1 X98.824 Y103.769 E6.74261
G1 X98.508 Y103.714 E6.77177
G1 X98.198 Y103.633 E6.80093
G1 X97.896 Y103.525 E6.83012
G1 X97.321 Y103.234 E6.88869
G1 X97.059 Y103.056 E6.91752
G1 X96.809 Y102.855 E6.94664
G1 X96.560 Y102.614 E6.97818
G1 X96.349 Y102.372 E7.00737
G1 X96.019 Y101.885 E7.06088
G1 X95.860 Y101.575 E7.09254
G1 X95.740 Y101.279 E7.12162
G1 X95.645 Y100.974 E7.15064
G1 X95.534 Y100.342 E7.20897
G1 X95.518 Y100.021 E7.23820
G1 X95.530 Y99.701 E7.26736
G1 X95.569 Y99.384 E7.29641
G1 X95.648 Y99.015 E7.33071
G1 X95.744 Y98.710 E7.35976
G1 X95.865 Y98.413 E7.38891
G1 X96.044 Y98.073 E7.42385
G1 X96.476 Y98.034 F7800.000
G1 E5.42385 F2400.000
G92 E0
G1 X101.601 Y99.382 F7800.000
G1 E2.00000 F2400.000
;TYPE:Solid infill
;WIDTH:0.758586
G1 F1800.000
G1 X100.531 Y98.313 E2.15039
G1 X100.257 Y98.141 E2.18256
G1 X99.897 Y98.000 E2.22099
G1 X99.751 Y97.963 E2.23600
G1 X99.441 Y97.922 E2.26714
G1 X99.183 Y97.931 E2.29279
G1 X101.393 Y100.141 E2.60365
G1 X101.323 Y100.563 E2.64621
G1 X101.193 Y100.907 E2.68278
G1 X98.416 Y98.131 E3.07323
G1 X98.259 Y98.210 E3.09075
G1 X97.950 Y98.434 E3.12869
G1 X97.854 Y98.535 E3.14258
G1 X100.786 Y101.467 E3.55497
G1 X100.694 Y101.563 E3.56820
G1 X100.389 Y101.786 E3.60576
G1 X100.222 Y101.870 E3.62434
G1 X97.447 Y99.095 E4.01466
G1 X97.313 Y99.455 E4.05287
G1 X97.244 Y99.858 E4.09360
G1 X99.455 Y102.070 E4.40460
G1 X99.224 Y102.078 E4.42763
G1 X98.866 Y102.031 E4.46350
G1 X98.714 Y101.991 E4.47914
G1 X98.421 Y101.875 E4.51043
G1 X98.104 Y101.685 E4.54728
G1 X97.055 Y100.636 E4.69480
;LAYER_CHANGE
;Z:0.65
;HEIGHT:0.3
G1 Z0.650 F7800.000
G1 X96.451 Y98.292
;TYPE:Perimeter
;WIDTH:0.45
G1 F900.000
G1 X96.694 Y97.937 E4.71546
G1 X96.859 Y97.743 E4.72771
G1 X97.147 Y97.465 E4.74697
G1 X97.317 Y97.329 E4.75744
G1 X97.747 Y97.056 E4.78193
G1 X98.196 Y96.857 E4.80556
G1 X98.687 Y96.721 E4.83005
G1 X99.142 Y96.665 E4.85211
G1 X99.564 Y96.672 E4.87238
G1 X99.901 Y96.711 E4.88871
G1 X100.350 Y96.824 E4.91098
G1 X100.838 Y97.026 E4.93637
G1 X101.021 Y97.126 E4.94643
G1 X101.437 Y97.420 E4.97092
G1 X101.793 Y97.758 E4.99455
G1 X102.107 Y98.160 E5.01904
G1 X102.216 Y98.338 E5.02911
G1 X102.442 Y98.815 E5.05449
G1 X102.510 Y99.013 E5.06455
G1 X102.626 Y99.528 E5.08993
G1 X102.648 Y99.734 E5.09990
G1 X102.646 Y100.291 E5.12669
G1 X102.559 Y100.812 E5.15209
G1 X102.482 Y101.073 E5.16519
G1 X102.265 Y101.574 E5.19144
G1 X102.129 Y101.805 E5.20435
G1 X101.940 Y102.069 E5.21997
G1 X101.695 Y102.347 E5.23776
G1 X101.501 Y102.528 E5.25054
G1 X101.069 Y102.844 E5.27630
G1 X100.689 Y103.045 E5.29698
G1 X100.445 Y103.144 E5.30962
G1 X99.918 Y103.285 E5.33587
G1 X99.647 Y103.323 E5.34904
G1 X99.102 Y103.332 E5.37526
G1 X98.562 Y103.252 E5.40151
G1 X98.299 Y103.179 E5.41464
G1 X97.795 Y102.970 E5.44089
G1 X97.339 Y102.687 E5.46668
G1 X97.011 Y102.411 E5.48733
G1 X96.828 Y102.222 E5.49997
G1 X96.505 Y101.795 E5.52573
G1 X96.297 Y101.418 E5.54643
G1 X96.109 Y100.917 E5.57217
G1 X96.003 Y100.381 E5.59842
G1 X95.983 Y100.109 E5.61155
G1 X96.010 Y99.564 E5.63780
G1 X96.125 Y99.030 E5.66406
G1 X96.215 Y98.772 E5.67719
G1 X96.423 Y98.344 E5.70008
G1 X96.139 Y98.066 F7800.000
G1 F900.000
G1 X96.388 Y97.703 E5.72124
G1 X96.577 Y97.479 E5.73535
G1 X96.892 Y97.175 E5.75640
G1 X97.093 Y97.014 E5.76876
G1 X97.565 Y96.715 E5.79565
G1 X98.066 Y96.493 E5.82201
G1 X98.605 Y96.344 E5.84890
G1 X99.129 Y96.280 E5.87430
G1 X99.589 Y96.287 E5.89643
G1 X99.963 Y96.330 E5.91454
G1 X100.478 Y96.459 E5.94007
G1 X101.005 Y96.677 E5.96751
G1 X101.226 Y96.799 E5.97962
G1 X101.683 Y97.121 E6.00651
G1 X102.080 Y97.499 E6.03288
G1 X102.424 Y97.939 E6.05976
G1 X102.556 Y98.154 E6.07187
G1 X102.800 Y98.670 E6.09931
G1 X102.882 Y98.908 E6.11142
G1 X103.007 Y99.464 E6.13884
G1 X103.034 Y99.713 E6.15090
G1 X103.032 Y100.315 E6.17986
G1 X102.996 Y100.606 E6.19397
G1 X102.848 Y101.197 E6.22326
G1 X102.738 Y101.481 E6.23791
G1 X102.453 Y102.016 E6.26706
G1 X102.242 Y102.309 E6.28444
G1 X101.973 Y102.615 E6.30404
G1 X101.515 Y103.010 E6.33310
G1 X101.267 Y103.176 E6.34746
G1 X100.852 Y103.395 E6.37003
G1 X100.284 Y103.598 E6.39901
G1 X99.987 Y103.665 E6.41367
G1 X99.381 Y103.724 E6.44295
G1 X98.773 Y103.684 E6.47227
G1 X98.181 Y103.546 E6.50152
G1 X97.894 Y103.441 E6.51621
G1 X97.353 Y103.163 E6.54546
G1 X97.106 Y102.995 E6.55984
G1 X96.747 Y102.693 E6.58238
G1 X96.346 Y102.243 E6.61137
G1 X96.177 Y101.998 E6.62572
G1 X95.950 Y101.586 E6.64832
G1 X95.738 Y101.023 E6.67728
G1 X95.620 Y100.425 E6.70656
G1 X95.597 Y100.122 E6.72121
G1 X95.627 Y99.513 E6.75050
G1 X95.756 Y98.918 E6.77980
G1 X95.856 Y98.631 E6.79444
G1 X96.108 Y98.117 E6.82196
G1 X95.821 Y97.847 F7800.000
;TYPE:External perimeter
G1 F900.000
G1 X96.081 Y97.469 E6.84406
G1 X96.296 Y97.215 E6.86003
G1 X96.637 Y96.885 E6.88287
G1 X96.868 Y96.700 E6.89713
G1 X97.383 Y96.374 E6.92641
G1 X97.936 Y96.129 E6.95551
G1 X98.523 Y95.967 E6.98479
G1 X99.115 Y95.894 E7.01352
G1 X99.614 Y95.902 E7.03752
G1 X100.025 Y95.949 E7.05742
G1 X100.606 Y96.095 E7.08621
G1 X101.172 Y96.329 E7.11570
G1 X101.430 Y96.471 E7.12986
G1 X101.928 Y96.822 E7.15914
G1 X102.366 Y97.239 E7.18824
G1 X102.741 Y97.719 E7.21752
G1 X102.895 Y97.970 E7.23168
G1 X103.157 Y98.524 E7.26117
G1 X103.253 Y98.802 E7.27532
G1 X103.387 Y99.400 E7.30480
G1 X103.420 Y99.693 E7.31895
G1 X103.417 Y100.340 E7.35007
G1 X103.377 Y100.669 E7.36604
G1 X103.308 Y100.999 E7.38225
G1 X103.213 Y101.321 E7.39839
G1 X103.092 Y101.635 E7.41456
G1 X102.946 Y101.938 E7.43074
G1 X102.776 Y102.227 E7.44686
G1 X102.544 Y102.550 E7.46600
G1 X102.250 Y102.884 E7.48741
G1 X102.006 Y103.113 E7.50350
G1 X101.742 Y103.322 E7.51967
G1 X101.465 Y103.507 E7.53573
G1 X101.015 Y103.745 E7.56021
G1 X100.705 Y103.870 E7.57627
G1 X100.384 Y103.971 E7.59244
G1 X100.056 Y104.044 E7.60861
G1 X99.723 Y104.091 E7.62482
G1 X99.388 Y104.110 E7.64096
G1 X99.051 Y104.102 E7.65713
G1 X98.716 Y104.066 E7.67334
G1 X98.387 Y104.003 E7.68947
G1 X98.063 Y103.914 E7.70565
G1 X97.746 Y103.798 E7.72186
G1 X97.442 Y103.657 E7.73799
G1 X97.149 Y103.491 E7.75416
G1 X96.873 Y103.303 E7.77025
G1 X96.484 Y102.975 E7.79470
G1 X96.252 Y102.736 E7.81076
G1 X96.038 Y102.476 E7.82693
G1 X95.848 Y102.201 E7.84299
G1 X95.603 Y101.755 E7.86749
G1 X95.473 Y101.448 E7.88353
G1 X95.367 Y101.129 E7.89970
G1 X95.288 Y100.801 E7.91589
G1 X95.236 Y100.469 E7.93204
G1 X95.211 Y100.134 E7.94822
G1 X95.214 Y99.797 E7.96442
G1 X95.244 Y99.463 E7.98056
G1 X95.302 Y99.132 E7.99673
G1 X95.386 Y98.806 E8.01292
G1 X95.497 Y98.489 E8.02908
G1 X95.633 Y98.181 E8.04525
G1 X95.788 Y97.898 E8.06080
G1 X96.221 Y97.861 F7800.000
G1 X100.722 Y102.897
;TYPE:Solid infill
;WIDTH:0.469494
G1 F1200.000
G1 X101.713 Y101.888 E8.13222
G1 X102.007 Y101.442 E8.15921
G1 X102.210 Y100.974 E8.18499
G1 X102.268 Y100.778 E8.19531
G1 X100.113 Y102.933 E8.34931
G1 X99.860 Y103.001 E8.36250
G1 X99.625 Y103.034 E8.37454
G1 X99.436 Y103.037 E8.38407
G1 X102.358 Y100.115 E8.59284
G1 X102.359 Y99.749 E8.61135
G1 X102.337 Y99.563 E8.62082
G1 X98.892 Y103.008 E8.86700
G1 X98.622 Y102.968 E8.88079
G1 X98.416 Y102.911 E8.89159
G1 X102.232 Y99.095 E9.16427
G1 X102.063 Y98.691 E9.18640
G1 X98.009 Y102.746 E9.47614
G1 X97.645 Y102.537 E9.49734
G1 X101.863 Y98.318 E9.79878
G1 X101.612 Y97.996 E9.81940
G1 X97.318 Y102.291 E10.12629
G1 X97.028 Y102.007 E10.14676
G1 X101.324 Y97.711 E10.45374
G1 X100.998 Y97.464 E10.47441
G1 X96.782 Y101.681 E10.77573
G1 X96.572 Y101.317 E10.79693
G1 X100.635 Y97.255 E11.08724
G1 X100.228 Y97.089 E11.10946
G1 X96.411 Y100.906 E11.38222
G1 X96.309 Y100.435 E11.40656
G1 X99.758 Y96.986 E11.65305
G1 X99.545 Y96.961 E11.66391
G1 X99.215 Y96.956 E11.68055
G1 X96.276 Y99.895 E11.89055
G1 X96.341 Y99.350 E11.91826
G1 X96.373 Y99.225 E11.92479
G1 X98.534 Y97.064 E12.07922
G1 X98.294 Y97.130 E12.09183
G1 X97.884 Y97.312 E12.11450
G1 X97.485 Y97.564 E12.13834
G1 X97.363 Y97.662 E12.14624
G1 X96.415 Y98.610 E12.21396
;LAYER_CHANGE
;Z:0.95
;HEIGHT:0.3
G1 Z0.950 F7800.000
G1 X96.596 Y98.378
;TYPE:Perimeter
;WIDTH:0.45
G1 F900.000
G1 X96.827 Y98.041 E12.23361
G1 X96.983 Y97.857 E12.24520
G1 X97.257 Y97.592 E12.26354
G1 X97.417 Y97.463 E12.27343
G1 X97.826 Y97.204 E12.29672
G1 X98.253 Y97.015 E12.31917
G1 X98.720 Y96.886 E12.34246
G1 X99.152 Y96.833 E12.36342
G1 X99.521 Y96.838 E12.38113
G1 X99.874 Y96.877 E12.39824
G1 X100.298 Y96.983 E12.41923
G1 X100.762 Y97.176 E12.44343
G1 X100.935 Y97.271 E12.45290
G1 X101.331 Y97.549 E12.47619
G1 X101.669 Y97.871 E12.49865
G1 X101.967 Y98.253 E12.52193
G1 X102.070 Y98.421 E12.53141
G1 X102.285 Y98.876 E12.55561
G1 X102.349 Y99.062 E12.56507
G1 X102.459 Y99.552 E12.58924
G1 X102.481 Y99.746 E12.59863
G1 X102.479 Y100.277 E12.62417
G1 X102.396 Y100.771 E12.64827
G1 X102.323 Y101.019 E12.66069
G1 X102.117 Y101.495 E12.68562
G1 X101.836 Y101.930 E12.71055
G1 X101.676 Y102.123 E12.72260
G1 X101.384 Y102.407 E12.74221
G1 X100.981 Y102.701 E12.76617
G1 X100.620 Y102.892 E12.78585
G1 X100.389 Y102.986 E12.79784
G1 X99.888 Y103.120 E12.82276
G1 X99.630 Y103.156 E12.83530
G1 X99.113 Y103.164 E12.86017
G1 X98.867 Y103.138 E12.87208
G1 X98.482 Y103.054 E12.89101
G1 X98.093 Y102.923 E12.91076
G1 X97.871 Y102.821 E12.92250
G1 X97.439 Y102.552 E12.94699
G1 X97.127 Y102.289 E12.96662
G1 X96.953 Y102.110 E12.97861
G1 X96.647 Y101.705 E13.00305
G1 X96.449 Y101.345 E13.02277
G1 X96.271 Y100.870 E13.04717
G1 X96.170 Y100.362 E13.07210
G1 X96.151 Y100.103 E13.08457
G1 X96.176 Y99.586 E13.10950
G1 X96.286 Y99.079 E13.13446
G1 X96.371 Y98.834 E13.14691
G1 X96.567 Y98.430 E13.16850
G1 X96.267 Y98.176 F7800.000
G1 F900.000
G1 X96.520 Y97.806 E13.19005
G1 X96.701 Y97.593 E13.20350
G1 X97.002 Y97.302 E13.22362
G1 X97.193 Y97.149 E13.23541
G1 X97.644 Y96.863 E13.26109
G1 X98.123 Y96.651 E13.28628
G1 X98.638 Y96.509 E13.31197
