; generated by PrusaSlicer 2.3.0+win64 on 2021-03-16 at 22:37:43 UTC

; 

; external perimeters extrusion width = 0.45mm
; perimeters extrusion width = 0.45mm
; infill extrusion width = 0.45mm
; solid infill extrusion width = 0.45mm
; top infill extrusion width = 0.40mm
; first layer extrusion width = 0.70mm

M107
M104 S200 ; set temperature
;TYPE:Custom
G28 ; home all axes
G1 Z5 F5000 ; lift nozzle
M109 S200 ; set temperature and wait for it to be reached
G21 ; set units to millimeters
G90 ; use absolute coordinates
M82 ; use absolute distances for extrusion
G92 E0
; Filament gcode
;LAYER_CHANGE
;Z:0.35
;HEIGHT:0.35
G1 Z0.350 F7800.000
G1 E-2.00000 F2400.000
G92 E0
G1 X92.353 Y92.394 F7800.000
G1 E2.00000 F2400.000
;TYPE:Skirt
;WIDTH:0.7
G1 F1800.000
G1 X93.088 Y91.721 E2.09062
G1 X94.066 Y90.994 E2.20145
G1 X95.801 Y90.066 E2.38031
G1 X96.942 Y89.657 E2.49056
G1 X97.904 Y89.419 E2.58067
G1 X98.878 Y89.273 E2.67021
G1 X100.108 Y89.214 E2.78219
G1 X102.040 Y89.409 E2.95875
G1 X103.210 Y89.702 E3.06843
G1 X104.142 Y90.039 E3.15854
G1 X105.021 Y90.453 E3.24691
G1 X106.066 Y91.081 E3.35774
G1 X107.581 Y92.326 E3.53603
G1 X108.390 Y93.220 E3.64570
G1 X108.974 Y94.013 E3.73523
G1 X109.479 Y94.851 E3.82418
G1 X109.999 Y95.953 E3.93501
G1 X110.565 Y97.824 E4.11272
G1 X110.743 Y99.023 E4.22297
G1 X110.788 Y100.021 E4.31379
G1 X110.601 Y101.990 E4.49370
G1 X110.288 Y103.242 E4.61099
G1 X109.943 Y104.185 E4.70234
G1 X109.004 Y105.941 E4.88338
G1 X108.340 Y106.842 E4.98519
G1 X107.659 Y107.596 E5.07754
G1 X106.806 Y108.369 E5.18223
G1 X106.005 Y108.962 E5.27286
G1 X105.146 Y109.480 E5.36404
G1 X104.123 Y109.968 E5.46706
G1 X103.149 Y110.317 E5.56119
G1 X102.053 Y110.589 E5.66388
G1 X100.053 Y110.786 E5.84664
G1 X99.063 Y110.744 E5.93668
G1 X97.803 Y110.558 E6.05255
G1 X95.932 Y109.989 E6.23031
G1 X95.028 Y109.570 E6.32094
G1 X94.036 Y108.986 E6.42562
G1 X92.484 Y107.734 E6.60694
G1 X91.744 Y106.939 E6.70568
G1 X91.135 Y106.142 E6.79687
G1 X90.534 Y105.166 E6.90111
G1 X90.092 Y104.258 E6.99295
G1 X89.730 Y103.292 E7.08675
G1 X89.438 Y102.180 E7.19128
G1 X89.280 Y101.183 E7.28306
G1 X89.217 Y100.119 E7.38002
G1 X89.278 Y98.852 E7.49533
G1 X89.420 Y97.911 E7.58189
G1 X89.983 Y96.003 E7.76275
G1 X90.461 Y94.969 E7.86638
G1 X90.984 Y94.081 E7.96007
G1 X91.577 Y93.264 E8.05181
G1 X92.313 Y92.439 E8.15238
G1 E6.15238 F2400.000
G92 E0
G1 X98.140 Y98.548 F7800.000
G1 E2.00000 F2400.000
;TYPE:Perimeter
G1 F1800.000
G1 X98.451 Y98.223 E2.04086
G1 X98.740 Y98.009 E2.07361
G1 X99.178 Y97.788 E2.11822
G1 X99.712 Y97.657 E2.16820
G1 X100.226 Y97.652 E2.21491
G1 X100.574 Y97.710 E2.24707
G1 X101.061 Y97.894 E2.29435
G1 X101.475 Y98.157 E2.33897
G1 X101.748 Y98.416 E2.37319
G1 X102.055 Y98.835 E2.42048
G1 X102.257 Y99.315 E2.46777
G1 X102.340 Y99.682 E2.50199
G1 X102.351 Y100.221 E2.55099
G1 X102.291 Y100.573 E2.58345
G1 X102.125 Y101.027 E2.62744
G1 X101.872 Y101.439 E2.67145
G1 X101.542 Y101.787 E2.71505
G1 X101.159 Y102.056 E2.75755
G1 X100.722 Y102.247 E2.80097
G1 X100.409 Y102.324 E2.83026
G1 X100.041 Y102.360 E2.86387
G1 X99.848 Y102.355 E2.88142
G1 X99.467 Y102.299 E2.91650
G1 X99.012 Y102.141 E2.96030
G1 X98.610 Y101.906 E3.00263
G1 X98.240 Y101.571 E3.04793
G1 X97.959 Y101.179 E3.09186
G1 X97.766 Y100.754 E3.13429
G1 X97.657 Y100.270 E3.17936
G1 X97.644 Y99.885 E3.21444
G1 X97.691 Y99.518 E3.24805
G1 X97.774 Y99.224 E3.27585
G1 X97.886 Y98.957 E3.30214
G1 X98.105 Y98.597 E3.34051
G1 X97.597 Y98.233 F7800.000
G1 F1800.000
G1 X97.800 Y97.983 E3.36974
G1 X98.045 Y97.746 E3.40081
G1 X98.404 Y97.479 E3.44147
G1 X98.807 Y97.264 E3.48303
G1 X98.978 Y97.195 E3.49975
G1 X99.436 Y97.068 E3.54295
G1 X99.635 Y97.036 E3.56130
G1 X99.838 Y97.019 E3.57979
G1 X100.271 Y97.028 E3.61921
G1 X100.726 Y97.103 E3.66115
G1 X100.920 Y97.159 E3.67950
G1 X101.342 Y97.334 E3.72106
G1 X101.735 Y97.569 E3.76262
G1 X101.881 Y97.680 E3.77934
G1 X102.212 Y97.995 E3.82090
G1 X102.493 Y98.355 E3.86245
G1 X102.599 Y98.527 E3.88081
G1 X102.692 Y98.706 E3.89916
G1 X102.857 Y99.133 E3.94072
G1 X102.957 Y99.578 E3.98228
G1 X102.977 Y99.759 E3.99882
G1 X102.975 Y100.260 E4.04435
G1 X102.898 Y100.724 E4.08715
G1 X102.832 Y100.951 E4.10862
G1 X102.689 Y101.298 E4.14275
G1 X102.521 Y101.601 E4.17431
G1 X102.369 Y101.819 E4.19837
G1 X102.221 Y101.997 E4.21942
G1 X101.951 Y102.260 E4.25374
G1 X101.674 Y102.472 E4.28545
G1 X101.459 Y102.605 E4.30843
G1 X101.113 Y102.771 E4.34331
G1 X100.902 Y102.846 E4.36368
G1 X100.527 Y102.939 E4.39879
G1 X100.052 Y102.985 E4.44227
G1 X99.807 Y102.979 E4.46447
G1 X99.325 Y102.908 E4.50885
G1 X99.097 Y102.845 E4.53032
G1 X98.749 Y102.709 E4.56433
G1 X98.418 Y102.530 E4.59854
G1 X98.232 Y102.404 E4.61893
G1 X97.937 Y102.156 E4.65404
G1 X97.774 Y101.988 E4.67533
G1 X97.625 Y101.807 E4.69663
G1 X97.417 Y101.492 E4.73091
G1 X97.256 Y101.172 E4.76351
G1 X97.170 Y100.945 E4.78556
G1 X97.072 Y100.574 E4.82051
G1 X97.017 Y100.099 E4.86399
G1 X97.019 Y99.854 E4.88620
G1 X97.081 Y99.380 E4.92968
G1 X97.183 Y99.018 E4.96387
G1 X97.324 Y98.680 E4.99715
G1 X97.562 Y98.282 E5.03937
G1 X97.054 Y97.918 F7800.000
;TYPE:External perimeter
G1 F1800.000
G1 X97.343 Y97.556 E5.08150
G1 X97.640 Y97.268 E5.11909
G1 X98.069 Y96.950 E5.16766
G1 X98.543 Y96.696 E5.21655
G1 X98.778 Y96.602 E5.23955
G1 X99.302 Y96.457 E5.28903
G1 X99.817 Y96.393 E5.33622
G1 X100.317 Y96.404 E5.38163
G1 X100.878 Y96.496 E5.43336
G1 X101.127 Y96.569 E5.45694
G1 X101.624 Y96.774 E5.50584
G1 X102.085 Y97.050 E5.55473
G1 X102.287 Y97.204 E5.57773
G1 X102.676 Y97.574 E5.62662
G1 X103.007 Y97.998 E5.67551
G1 X103.143 Y98.219 E5.69909
G1 X103.263 Y98.449 E5.72268
G1 X103.456 Y98.950 E5.77157
G1 X103.574 Y99.475 E5.82046
G1 X103.602 Y99.726 E5.84340
G1 X103.600 Y100.299 E5.89556
G1 X103.505 Y100.876 E5.94870
G1 X103.422 Y101.158 E5.97541
G1 X103.254 Y101.570 E6.01587
G1 X103.051 Y101.933 E6.05366
G1 X102.867 Y102.198 E6.08303
G1 X102.681 Y102.421 E6.10948
G1 X102.361 Y102.733 E6.15012
G1 X102.029 Y102.987 E6.18808
G1 X101.759 Y103.154 E6.21695
G1 X101.354 Y103.348 E6.25779
G1 X101.083 Y103.445 E6.28399
G1 X100.646 Y103.553 E6.32491
G1 X100.062 Y103.610 E6.37826
G1 X99.767 Y103.603 E6.40512
G1 X99.183 Y103.517 E6.45879
G1 X98.900 Y103.439 E6.48550
G1 X98.486 Y103.277 E6.52591
G1 X98.093 Y103.065 E6.56651
G1 X97.854 Y102.903 E6.59272
G1 X97.510 Y102.614 E6.63364
G1 X97.307 Y102.404 E6.66017
G1 X97.122 Y102.179 E6.68670
G1 X96.875 Y101.806 E6.72733
G1 X96.683 Y101.424 E6.76623
G1 X96.574 Y101.137 E6.79415
G1 X96.460 Y100.702 E6.83502
G1 X96.392 Y100.119 E6.88837
G1 X96.395 Y99.824 E6.91522
G1 X96.471 Y99.242 E6.96857
G1 X96.592 Y98.812 E7.00917
G1 X96.762 Y98.404 E7.04943
G1 X97.019 Y97.967 E7.09552
G1 X97.453 Y97.952 F7800.000
G1 E5.09552 F2400.000
G92 E0
G1 X100.577 Y97.911 F7800.000
G1 E2.00000 F2400.000
;TYPE:Solid infill
;WIDTH:0.703349
G1 F1800.000
G1 X101.400 Y98.734 E2.10647
G1 X101.645 Y99.068 E2.14430
G1 X101.807 Y99.453 E2.18246
G1 X101.883 Y99.838 E2.21836
G1 X101.882 Y100.105 E2.24278
G1 X99.901 Y98.124 E2.49894
G1 X99.771 Y98.125 E2.51084
G1 X99.341 Y98.231 E2.55127
G1 X99.194 Y98.305 E2.56638
G1 X101.704 Y100.815 E2.89089
G1 X101.499 Y101.152 E2.92697
G1 X101.330 Y101.329 E2.94935
G1 X98.671 Y98.671 E3.29307
G1 X98.513 Y98.837 E3.31406
G1 X98.298 Y99.186 E3.35153
G1 X100.809 Y101.697 E3.67621
G1 X100.579 Y101.798 E3.69922
G1 X100.106 Y101.882 E3.74314
G1 X98.116 Y99.892 E4.00041
G1 X98.124 Y100.211 E4.02952
G1 X98.212 Y100.604 E4.06639
G1 X98.366 Y100.943 E4.10042
G1 X98.591 Y101.256 E4.13559
G1 X99.419 Y102.084 E4.24265
;LAYER_CHANGE
;Z:0.65
;HEIGHT:0.3
G1 Z0.650 F7800.000
G1 X97.984 Y97.646
;TYPE:Perimeter
;WIDTH:0.45
G1 F900.000
G1 X98.140 Y97.521 E4.25226
G1 X98.540 Y97.268 E4.27507
G1 X98.957 Y97.083 E4.29700
G1 X99.414 Y96.956 E4.31981
G1 X99.621 Y96.922 E4.32990
G1 X100.119 Y96.904 E4.35387
G1 X100.546 Y96.948 E4.37453
G1 X100.754 Y96.992 E4.38474
G1 X100.956 Y97.050 E4.39484
G1 X101.411 Y97.238 E4.41854
G1 X101.579 Y97.331 E4.42775
G1 X101.967 Y97.603 E4.45056
G1 X102.297 Y97.918 E4.47250
G1 X102.589 Y98.292 E4.49531
G1 X102.691 Y98.457 E4.50465
G1 X102.874 Y98.839 E4.52502
G1 X102.965 Y99.088 E4.53779
G1 X103.071 Y99.562 E4.56112
G1 X103.092 Y99.750 E4.57025
G1 X103.090 Y100.270 E4.59524
G1 X103.012 Y100.743 E4.61828
G1 X102.891 Y101.124 E4.63753
G1 X102.795 Y101.348 E4.64924
G1 X102.680 Y101.562 E4.66095
G1 X102.461 Y101.888 E4.67981
G1 X102.231 Y102.154 E4.69673
G1 X102.025 Y102.349 E4.71037
G1 X101.627 Y102.640 E4.73409
G1 X101.273 Y102.828 E4.75336
G1 X101.047 Y102.919 E4.76507
G1 X100.558 Y103.050 E4.78944
G1 X100.306 Y103.085 E4.80165
G1 X99.800 Y103.094 E4.82601
G1 X99.309 Y103.022 E4.84990
G1 X98.925 Y102.907 E4.86916
G1 X98.710 Y102.818 E4.88038
G1 X98.357 Y102.628 E4.89964
G1 X98.164 Y102.496 E4.91087
G1 X97.858 Y102.239 E4.93012
G1 X97.694 Y102.070 E4.94141
G1 X97.466 Y101.782 E4.95910
G1 X97.316 Y101.548 E4.97245
G1 X97.204 Y101.335 E4.98402
G1 X97.059 Y100.973 E5.00278
G1 X96.960 Y100.595 E5.02157
G1 X96.922 Y100.355 E5.03326
G1 X96.905 Y99.848 E5.05765
G1 X96.971 Y99.346 E5.08200
G1 X97.035 Y99.101 E5.09421
G1 X97.221 Y98.630 E5.11857
G1 X97.337 Y98.416 E5.13029
G1 X97.564 Y98.085 E5.14954
G1 X97.716 Y97.906 E5.16086
G1 X97.941 Y97.688 E5.17592
G1 X97.161 Y97.991 F7800.000
G1 F900.000
G1 X97.434 Y97.642 E5.19722
G1 X97.728 Y97.357 E5.21696
G1 X97.915 Y97.207 E5.22847
G1 X98.358 Y96.927 E5.25367
G1 X98.827 Y96.719 E5.27834
G1 X99.331 Y96.579 E5.30354
G1 X99.574 Y96.540 E5.31534
G1 X100.139 Y96.518 E5.34255
G1 X100.606 Y96.566 E5.36514
G1 X101.083 Y96.685 E5.38880
G1 X101.578 Y96.890 E5.41455
G1 X101.783 Y97.003 E5.42581
G1 X102.212 Y97.304 E5.45102
G1 X102.584 Y97.658 E5.47569
G1 X102.906 Y98.071 E5.50089
G1 X103.030 Y98.272 E5.51224
G1 X103.231 Y98.689 E5.53452
G1 X103.336 Y98.980 E5.54939
G1 X103.452 Y99.498 E5.57491
G1 X103.478 Y99.730 E5.58612
G1 X103.476 Y100.294 E5.61327
G1 X103.386 Y100.840 E5.63989
G1 X103.253 Y101.259 E5.66104
G1 X103.142 Y101.515 E5.67445
G1 X103.011 Y101.761 E5.68787
G1 X102.768 Y102.122 E5.70879
G1 X102.510 Y102.420 E5.72774
G1 X102.279 Y102.641 E5.74312
G1 X101.825 Y102.972 E5.77013
G1 X101.436 Y103.178 E5.79129
G1 X101.178 Y103.282 E5.80471
G1 X100.627 Y103.430 E5.83211
G1 X100.060 Y103.486 E5.85952
G1 X99.775 Y103.479 E5.87324
G1 X99.217 Y103.397 E5.90035
G1 X98.796 Y103.271 E5.92151
G1 X98.544 Y103.166 E5.93462
G1 X98.157 Y102.958 E5.95579
G1 X97.931 Y102.804 E5.96891
G1 X97.594 Y102.521 E5.99006
G1 X97.404 Y102.325 E6.00322
G1 X97.152 Y102.006 E6.02276
G1 X96.982 Y101.742 E6.03784
G1 X96.853 Y101.497 E6.05118
G1 X96.692 Y101.094 E6.07203
G1 X96.582 Y100.675 E6.09290
G1 X96.517 Y100.115 E6.11999
G1 X96.520 Y99.830 E6.13372
G1 X96.594 Y99.265 E6.16111
G1 X96.759 Y98.720 E6.18852
G1 X96.874 Y98.459 E6.20223
G1 X97.127 Y98.041 E6.22573
G1 X96.843 Y97.773 F7800.000
;TYPE:External perimeter
G1 F900.000
G1 X97.152 Y97.378 E6.24984
G1 X97.473 Y97.067 E6.27136
G1 X97.691 Y96.893 E6.28477
G1 X98.175 Y96.586 E6.31236
G1 X98.696 Y96.355 E6.33977
G1 X99.249 Y96.201 E6.36736
G1 X99.526 Y96.157 E6.38087
G1 X99.809 Y96.132 E6.39451
G1 X100.159 Y96.133 E6.41136
G1 X100.666 Y96.185 E6.43586
G1 X101.211 Y96.321 E6.46289
G1 X101.745 Y96.542 E6.49070
G1 X101.988 Y96.675 E6.50401
G1 X102.457 Y97.005 E6.53161
G1 X102.870 Y97.398 E6.55902
G1 X103.223 Y97.850 E6.58661
G1 X103.369 Y98.087 E6.59996
G1 X103.587 Y98.540 E6.62415
G1 X103.706 Y98.872 E6.64112
G1 X103.833 Y99.434 E6.66884
G1 X103.864 Y99.709 E6.68214
G1 X103.861 Y100.318 E6.71145
G1 X103.823 Y100.628 E6.72645
G1 X103.759 Y100.938 E6.74166
G1 X103.615 Y101.394 E6.76471
G1 X103.490 Y101.683 E6.77983
G1 X103.342 Y101.960 E6.79496
G1 X103.075 Y102.357 E6.81793
G1 X102.790 Y102.687 E6.83890
G1 X102.532 Y102.932 E6.85602
G1 X102.284 Y103.128 E6.87122
G1 X102.023 Y103.303 E6.88635
G1 X101.599 Y103.528 E6.90941
G1 X101.308 Y103.646 E6.92453
G1 X101.005 Y103.740 E6.93977
G1 X100.696 Y103.810 E6.95500
G1 X100.382 Y103.854 E6.97025
G1 X100.066 Y103.872 E6.98547
G1 X99.750 Y103.864 E7.00070
G1 X99.435 Y103.831 E7.01594
G1 X99.126 Y103.772 E7.03106
G1 X98.666 Y103.635 E7.05412
G1 X98.378 Y103.515 E7.06913
G1 X97.956 Y103.288 E7.09220
G1 X97.698 Y103.112 E7.10722
G1 X97.331 Y102.804 E7.13027
G1 X97.114 Y102.579 E7.14530
G1 X96.838 Y102.231 E7.16668
G1 X96.649 Y101.936 E7.18349
G1 X96.503 Y101.658 E7.19860
G1 X96.326 Y101.216 E7.22153
G1 X96.204 Y100.754 E7.24450
G1 X96.155 Y100.444 E7.25960
G1 X96.132 Y100.128 E7.27484
G1 X96.134 Y99.811 E7.29009
G1 X96.162 Y99.496 E7.30530
G1 X96.217 Y99.184 E7.32053
G1 X96.296 Y98.877 E7.33577
G1 X96.400 Y98.578 E7.35100
G1 X96.528 Y98.288 E7.36623
G1 X96.679 Y98.012 E7.38136
G1 X96.809 Y97.822 E7.39242
G1 X97.241 Y97.814 F7800.000
G1 X101.264 Y102.702
;TYPE:Solid infill
;WIDTH:0.464618
G1 F1200.000
G1 X102.085 Y101.880 E7.45041
G1 X102.230 Y101.712 E7.46152
G1 X102.432 Y101.413 E7.47950
G1 X102.534 Y101.222 E7.49033
G1 X102.620 Y101.023 E7.50115
G1 X102.731 Y100.668 E7.51971
G1 X100.682 Y102.718 E7.66440
G1 X100.284 Y102.797 E7.68465
G1 X100.032 Y102.801 E7.69720
G1 X102.802 Y100.031 E7.89272
G1 X102.803 Y99.766 E7.90597
G1 X102.762 Y99.505 E7.91914
G1 X99.509 Y102.759 E8.14882
G1 X99.372 Y102.738 E8.15574
G1 X99.057 Y102.644 E8.17214
G1 X102.645 Y99.056 E8.42549
G1 X102.607 Y98.951 E8.43106
G1 X102.470 Y98.665 E8.44689
G1 X98.668 Y102.467 E8.71530
G1 X98.320 Y102.249 E8.73581
G1 X102.246 Y98.323 E9.01303
G1 X102.082 Y98.113 E9.02633
G1 X101.984 Y98.019 E9.03311
G1 X98.016 Y101.987 E9.31322
G1 X97.755 Y101.682 E9.33326
G1 X101.681 Y97.756 E9.61040
G1 X101.341 Y97.530 E9.63078
G1 X97.533 Y101.339 E9.89966
G1 X97.360 Y100.945 E9.92110
G1 X100.946 Y97.359 E10.17429
G1 X100.505 Y97.234 E10.19719
G1 X97.238 Y100.501 E10.42783
G1 X97.210 Y100.328 E10.43660
G1 X97.199 Y99.974 E10.45426
G1 X99.974 Y97.199 E10.65022
G1 X99.650 Y97.211 E10.66645
G1 X99.327 Y97.280 E10.68293
G1 X97.273 Y99.334 E10.82792
G1 X97.310 Y99.190 E10.83533
G1 X97.483 Y98.752 E10.85884
G1 X97.584 Y98.567 E10.86937
G1 X97.794 Y98.261 E10.88788
G1 X98.732 Y97.309 E10.95461
;LAYER_CHANGE
;Z:0.95
;HEIGHT:0.3
G1 Z0.950 F7800.000
G1 X98.097 Y97.778
;TYPE:Perimeter
;WIDTH:0.45
G1 F900.000
G1 X98.244 Y97.661 E10.96363
G1 X98.622 Y97.421 E10.98519
G1 X99.016 Y97.246 E11.00591
G1 X99.448 Y97.126 E11.02747
G1 X99.643 Y97.095 E11.03694
G1 X100.135 Y97.078 E11.06062
G1 X100.516 Y97.118 E11.07906
G1 X100.712 Y97.160 E11.08871
G1 X100.902 Y97.214 E11.09820
G1 X101.333 Y97.393 E11.12067
G1 X101.490 Y97.479 E11.12927
G1 X101.857 Y97.737 E11.15085
G1 X102.169 Y98.034 E11.17158
G1 X102.446 Y98.388 E11.19314
G1 X102.540 Y98.540 E11.20176
G1 X102.740 Y98.962 E11.22424
G1 X102.798 Y99.131 E11.23284
G1 X102.900 Y99.587 E11.25529
G1 X102.920 Y99.763 E11.26382
G1 X102.918 Y100.256 E11.28753
G1 X102.844 Y100.701 E11.30924
G1 X102.730 Y101.062 E11.32743
G1 X102.639 Y101.272 E11.33846
G1 X102.531 Y101.475 E11.34949
G1 X102.323 Y101.783 E11.36738
G1 X102.116 Y102.024 E11.38264
G1 X101.912 Y102.219 E11.39625
G1 X101.528 Y102.498 E11.41905
G1 X101.328 Y102.609 E11.43007
G1 X100.979 Y102.759 E11.44832
G1 X100.527 Y102.880 E11.47084
G1 X100.289 Y102.913 E11.48241
G1 X99.811 Y102.921 E11.50537
G1 X99.346 Y102.852 E11.52800
G1 X99.026 Y102.758 E11.54406
G1 X98.779 Y102.658 E11.55685
G1 X98.449 Y102.480 E11.57489
G1 X98.267 Y102.356 E11.58547
G1 X97.978 Y102.113 E11.60366
G1 X97.824 Y101.954 E11.61430
G1 X97.614 Y101.690 E11.63051
G1 X97.466 Y101.460 E11.64364
G1 X97.361 Y101.260 E11.65451
G1 X97.225 Y100.918 E11.67222
G1 X97.130 Y100.561 E11.69000
G1 X97.095 Y100.335 E11.70098
G1 X97.079 Y99.856 E11.72404
G1 X97.141 Y99.383 E11.74699
G1 X97.202 Y99.151 E11.75852
G1 X97.377 Y98.707 E11.78150
G1 X97.487 Y98.505 E11.79256
G1 X97.701 Y98.192 E11.81076
G1 X98.054 Y97.820 E11.83547
G1 X97.304 Y98.089 F7800.000
G1 F900.000
G1 X97.562 Y97.760 E11.85557
G1 X97.842 Y97.488 E11.87435
G1 X98.019 Y97.347 E11.88526
G1 X98.440 Y97.080 E11.90922
G1 X98.886 Y96.882 E11.93268
G1 X99.366 Y96.749 E11.95663
G1 X99.595 Y96.712 E11.96781
G1 X99.833 Y96.691 E11.97929
G1 X100.156 Y96.693 E11.99481
G1 X100.576 Y96.737 E12.01514
