; generated by PrusaSlicer 2.3.0+win64 on 2021-03-16 at 22:38:06 UTC

; 

; external perimeters extrusion width = 0.45mm
; perimeters extrusion width = 0.45mm
; infill extrusion width = 0.45mm
; solid infill extrusion width = 0.45mm
; top infill extrusion width = 0.40mm
; first layer extrusion width = 0.70mm

M107
M104 S200 ; set temperature
;TYPE:Custom
G28 ; home all axes
G1 Z5 F5000 ; lift nozzle
M109 S200 ; set temperature and wait for it to be reached
G21 ; set units to millimeters
G90 ; use absolute coordinates
M82 ; use absolute distances for extrusion
G92 E0
; Filament gcode
;LAYER_CHANGE
;Z:0.35
;HEIGHT:0.35
G1 Z0.350 F7800.000
G1 E-2.00000 F2400.000
G92 E0
G1 X91.849 Y91.898 F7800.000
G1 E2.00000 F2400.000
;TYPE:Skirt
;WIDTH:0.7
G1 F1800.000
G1 X92.624 Y91.188 E2.09560
G1 X93.666 Y90.413 E2.21368
G1 X95.503 Y89.429 E2.40317
G1 X96.733 Y88.987 E2.52205
G1 X97.750 Y88.734 E2.61728
G1 X98.789 Y88.578 E2.71287
G1 X100.116 Y88.514 E2.83370
G1 X102.158 Y88.720 E3.02026
G1 X103.426 Y89.038 E3.13918
G1 X104.407 Y89.394 E3.23407
G1 X105.340 Y89.833 E3.32778
G1 X106.469 Y90.511 E3.44753
G1 X108.068 Y91.827 E3.63585
G1 X108.940 Y92.791 E3.75406
G1 X109.560 Y93.632 E3.84907
G1 X110.093 Y94.518 E3.94310
G1 X110.655 Y95.709 E4.06280
G1 X111.252 Y97.686 E4.25065
G1 X111.443 Y98.986 E4.37011
G1 X111.489 Y100.032 E4.46526
G1 X111.432 Y101.147 E4.56679
G1 X111.208 Y102.528 E4.69403
G1 X110.565 Y104.528 E4.88504
G1 X109.549 Y106.399 E5.07864
G1 X108.950 Y107.212 E5.17048
G1 X108.015 Y108.241 E5.29689
G1 X106.374 Y109.572 E5.48903
G1 X104.515 Y110.576 E5.68116
G1 X103.206 Y111.045 E5.80756
G1 X102.213 Y111.287 E5.90054
G1 X101.132 Y111.448 E5.99989
G1 X100.054 Y111.504 E6.09808
G1 X98.994 Y111.459 E6.19453
G1 X97.613 Y111.253 E6.32150
G1 X95.600 Y110.632 E6.51305
G1 X93.736 Y109.650 E6.70459
G1 X92.609 Y108.815 E6.83214
G1 X91.850 Y108.121 E6.92570
G1 X91.108 Y107.302 E7.02619
G1 X90.456 Y106.425 E7.12554
G1 X89.919 Y105.540 E7.21967
G1 X89.327 Y104.289 E7.34549
G1 X88.720 Y102.252 E7.53877
G1 X88.501 Y100.150 E7.73090
G1 X88.568 Y98.762 E7.85732
G1 X88.721 Y97.764 E7.94914
G1 X89.326 Y95.726 E8.14244
G1 X89.785 Y94.727 E8.24237
G1 X90.505 Y93.523 E8.36994
G1 X91.810 Y91.944 E8.55619
G1 E6.55619 F2400.000
G92 E0
G1 X97.827 Y97.835 F7800.000
G1 E2.00000 F2400.000
;TYPE:Perimeter
G1 F1800.000
G1 X98.166 Y97.542 E2.04074
G1 X98.353 Y97.415 E2.06129
G1 X98.548 Y97.301 E2.08184
G1 X98.961 Y97.118 E2.12291
G1 X99.396 Y96.998 E2.16399
G1 X99.619 Y96.962 E2.18454
G1 X100.071 Y96.940 E2.22562
G1 X100.520 Y96.984 E2.26669
G1 X100.741 Y97.031 E2.28724
G1 X101.170 Y97.173 E2.32832
G1 X101.376 Y97.267 E2.34887
G1 X101.763 Y97.499 E2.38994
G1 X102.112 Y97.786 E2.43103
G1 X102.415 Y98.121 E2.47210
G1 X102.548 Y98.304 E2.49265
G1 X102.770 Y98.697 E2.53365
G1 X102.932 Y99.119 E2.57481
G1 X102.990 Y99.338 E2.59536
G1 X103.056 Y99.782 E2.63625
G1 X103.053 Y100.264 E2.68000
G1 X103.023 Y100.510 E2.70261
G1 X102.900 Y100.997 E2.74823
G1 X102.810 Y101.231 E2.77106
G1 X102.573 Y101.673 E2.81668
G1 X102.268 Y102.071 E2.86229
G1 X101.901 Y102.414 E2.90791
G1 X101.484 Y102.693 E2.95353
G1 X101.260 Y102.805 E2.97636
G1 X101.027 Y102.899 E2.99918
G1 X100.542 Y103.029 E3.04480
G1 X100.035 Y103.078 E3.09111
G1 X99.543 Y103.045 E3.13602
G1 X99.296 Y102.998 E3.15885
G1 X98.818 Y102.844 E3.20446
G1 X98.372 Y102.615 E3.25007
G1 X98.165 Y102.474 E3.27290
G1 X97.782 Y102.136 E3.31926
G1 X97.470 Y101.755 E3.36412
G1 X97.335 Y101.543 E3.38695
G1 X97.119 Y101.082 E3.43324
G1 X96.984 Y100.607 E3.47817
G1 X96.926 Y100.108 E3.52379
G1 X96.928 Y99.857 E3.54661
G1 X96.994 Y99.360 E3.59223
G1 X97.142 Y98.875 E3.63828
G1 X97.362 Y98.430 E3.68347
G1 X97.500 Y98.220 E3.70630
G1 X97.786 Y97.879 E3.74680
G1 X97.327 Y97.455 F7800.000
G1 F1800.000
G1 X97.581 Y97.210 E3.77897
G1 X97.794 Y97.040 E3.80370
G1 X98.253 Y96.749 E3.85314
G1 X98.498 Y96.630 E3.87788
G1 X98.750 Y96.529 E3.90262
G1 X99.275 Y96.384 E3.95206
G1 X99.814 Y96.318 E4.00150
G1 X100.086 Y96.315 E4.02624
G1 X100.627 Y96.368 E4.07568
G1 X101.155 Y96.500 E4.12511
G1 X101.410 Y96.595 E4.14987
G1 X101.657 Y96.709 E4.17461
G1 X102.123 Y96.988 E4.22404
G1 X102.544 Y97.334 E4.27349
G1 X102.908 Y97.737 E4.32294
G1 X103.068 Y97.957 E4.34767
G1 X103.335 Y98.430 E4.39703
G1 X103.531 Y98.938 E4.44656
G1 X103.600 Y99.201 E4.47129
G1 X103.680 Y99.738 E4.52064
G1 X103.677 Y100.314 E4.57304
G1 X103.640 Y100.613 E4.60039
G1 X103.493 Y101.198 E4.65531
G1 X103.384 Y101.480 E4.68279
G1 X103.099 Y102.013 E4.73771
G1 X102.731 Y102.492 E4.79262
G1 X102.290 Y102.904 E4.84753
G1 X101.788 Y103.239 E4.90244
G1 X101.518 Y103.375 E4.92992
G1 X101.237 Y103.488 E4.95740
G1 X100.654 Y103.644 E5.01231
G1 X100.048 Y103.703 E5.06764
G1 X99.451 Y103.663 E5.12212
G1 X98.863 Y103.526 E5.17702
G1 X98.305 Y103.295 E5.23193
G1 X98.042 Y103.146 E5.25941
G1 X97.596 Y102.818 E5.30972
G1 X97.335 Y102.574 E5.34224
G1 X97.137 Y102.352 E5.36925
G1 X96.955 Y102.111 E5.39673
G1 X96.675 Y101.628 E5.44753
G1 X96.534 Y101.305 E5.47952
G1 X96.441 Y101.022 E5.50658
G1 X96.370 Y100.729 E5.53406
G1 X96.301 Y100.129 E5.58897
G1 X96.304 Y99.826 E5.61645
G1 X96.383 Y99.228 E5.67136
G1 X96.559 Y98.647 E5.72654
G1 X96.825 Y98.108 E5.78119
G1 X96.991 Y97.856 E5.80867
G1 X97.286 Y97.500 E5.85070
G1 X96.827 Y97.076 F7800.000
;TYPE:External perimeter
G1 F1800.000
G1 X97.173 Y96.736 E5.89482
G1 X97.421 Y96.538 E5.92374
G1 X97.684 Y96.358 E5.95266
G1 X98.245 Y96.058 E6.01047
G1 X98.540 Y95.940 E6.03939
G1 X99.153 Y95.771 E6.09720
G1 X99.784 Y95.693 E6.15501
G1 X100.419 Y95.709 E6.21282
G1 X100.734 Y95.752 E6.24174
G1 X101.351 Y95.907 E6.29954
G1 X101.649 Y96.018 E6.32848
G1 X101.938 Y96.150 E6.35740
G1 X102.483 Y96.477 E6.41520
G1 X102.975 Y96.881 E6.47302
G1 X103.402 Y97.352 E6.53083
G1 X103.588 Y97.610 E6.55976
G1 X103.901 Y98.162 E6.61747
G1 X104.129 Y98.757 E6.67538
G1 X104.268 Y99.372 E6.73276
G1 X104.303 Y99.693 E6.76210
G1 X104.300 Y100.364 E6.82314
G1 X104.257 Y100.715 E6.85525
G1 X104.185 Y101.061 E6.88738
G1 X104.085 Y101.400 E6.91951
G1 X103.957 Y101.729 E6.95165
G1 X103.803 Y102.047 E6.98378
G1 X103.624 Y102.352 E7.01591
G1 X103.421 Y102.641 E7.04804
G1 X103.194 Y102.912 E7.08017
G1 X102.946 Y103.164 E7.11230
G1 X102.678 Y103.394 E7.14443
G1 X102.393 Y103.602 E7.17656
G1 X102.091 Y103.786 E7.20869
G1 X101.775 Y103.945 E7.24082
G1 X101.448 Y104.077 E7.27294
G1 X101.110 Y104.182 E7.30507
G1 X100.766 Y104.260 E7.33720
G1 X100.465 Y104.302 E7.36481
G1 X100.061 Y104.329 E7.40160
G1 X99.710 Y104.320 E7.43357
G1 X99.358 Y104.282 E7.46570
G1 X99.011 Y104.216 E7.49782
G1 X98.671 Y104.121 E7.52995
G1 X98.339 Y104.000 E7.56208
G1 X98.019 Y103.851 E7.59420
G1 X97.711 Y103.677 E7.62633
G1 X97.419 Y103.478 E7.65846
G1 X97.186 Y103.290 E7.68569
G1 X96.887 Y103.011 E7.72286
G1 X96.654 Y102.748 E7.75482
G1 X96.441 Y102.466 E7.78695
G1 X96.252 Y102.168 E7.81908
G1 X96.110 Y101.897 E7.84682
G1 X95.950 Y101.528 E7.88347
G1 X95.840 Y101.194 E7.91545
G1 X95.757 Y100.850 E7.94757
G1 X95.702 Y100.501 E7.97970
G1 X95.676 Y100.149 E8.01183
G1 X95.679 Y99.796 E8.04396
G1 X95.711 Y99.444 E8.07609
G1 X95.771 Y99.096 E8.10822
G1 X95.853 Y98.781 E8.13773
G1 X95.977 Y98.419 E8.17257
G1 X96.120 Y98.097 E8.20461
G1 X96.289 Y97.787 E8.23674
G1 X96.483 Y97.491 E8.26887
G1 X96.786 Y97.120 E8.31242
G1 X97.217 Y97.164 F7800.000
G1 E6.31242 F2400.000
G92 E0
G1 X102.710 Y99.062 F7800.000
G1 E2.00000 F2400.000
;TYPE:Solid infill
;WIDTH:0.721156
G1 F1800.000
G1 X101.657 Y98.009 E2.13991
G1 X101.500 Y97.888 E2.15861
G1 X101.157 Y97.682 E2.19619
G1 X100.998 Y97.610 E2.21257
G1 X100.627 Y97.487 E2.24935
G1 X100.153 Y97.419 E2.29437
G1 X102.587 Y99.853 E2.61792
G1 X102.585 Y100.224 E2.65282
G1 X102.504 Y100.684 E2.69672
G1 X99.320 Y97.499 E3.12012
G1 X99.127 Y97.557 E3.13901
G1 X98.676 Y97.769 E3.18589
G1 X102.230 Y101.323 E3.65839
G1 X102.056 Y101.592 E3.68853
G1 X101.832 Y101.839 E3.71983
G1 X98.165 Y98.172 E4.20730
G1 X97.887 Y98.486 E4.24674
G1 X97.766 Y98.687 E4.26876
G1 X101.319 Y102.239 E4.74107
G1 X100.860 Y102.461 E4.78896
G1 X100.682 Y102.516 E4.80650
G1 X97.491 Y99.325 E5.23076
G1 X97.415 Y99.678 E5.26467
G1 X97.398 Y99.871 E5.28291
G1 X97.407 Y100.155 E5.30961
G1 X99.853 Y102.601 E5.63487
G1 X99.621 Y102.582 E5.65678
G1 X99.198 Y102.483 E5.69762
G1 X98.797 Y102.317 E5.73846
G1 X98.628 Y102.221 E5.75674
G1 X98.369 Y102.031 E5.78689
G1 X97.271 Y100.933 E5.93289
;LAYER_CHANGE
;Z:0.65
;HEIGHT:0.3
G1 Z0.650 F7800.000
G1 X97.184 Y97.406
;TYPE:Perimeter
;WIDTH:0.45
G1 F900.000
G1 X97.491 Y97.105 E5.95356
G1 X97.711 Y96.929 E5.96715
G1 X98.188 Y96.627 E5.99427
G1 X98.442 Y96.504 E6.00784
G1 X98.973 Y96.314 E6.03497
G1 X99.248 Y96.249 E6.04856
G1 X99.796 Y96.181 E6.07514
G1 X100.211 Y96.185 E6.09509
G1 X100.664 Y96.235 E6.11700
G1 X101.198 Y96.369 E6.14349
G1 X101.719 Y96.586 E6.17062
G1 X101.966 Y96.722 E6.18420
G1 X102.427 Y97.047 E6.21133
G1 X102.639 Y97.234 E6.22490
G1 X103.017 Y97.652 E6.25203
G1 X103.183 Y97.881 E6.26561
G1 X103.460 Y98.371 E6.29273
G1 X103.663 Y98.898 E6.31987
G1 X103.735 Y99.171 E6.33344
G1 X103.818 Y99.728 E6.36054
G1 X103.816 Y100.311 E6.38856
G1 X103.742 Y100.794 E6.41207
G1 X103.620 Y101.256 E6.43505
G1 X103.511 Y101.536 E6.44949
G1 X103.375 Y101.818 E6.46458
G1 X103.216 Y102.088 E6.47966
G1 X103.035 Y102.345 E6.49474
G1 X102.834 Y102.586 E6.50984
G1 X102.614 Y102.809 E6.52491
G1 X102.377 Y103.014 E6.54000
G1 X102.123 Y103.199 E6.55508
G1 X101.856 Y103.362 E6.57017
G1 X101.575 Y103.503 E6.58525
G1 X101.284 Y103.621 E6.60036
G1 X100.999 Y103.710 E6.61472
G1 X100.503 Y103.806 E6.63905
G1 X100.043 Y103.844 E6.66124
G1 X99.742 Y103.836 E6.67572
G1 X99.430 Y103.803 E6.69081
G1 X99.122 Y103.744 E6.70590
G1 X98.819 Y103.660 E6.72098
G1 X98.525 Y103.552 E6.73608
G1 X98.254 Y103.426 E6.75045
G1 X97.818 Y103.162 E6.77497
G1 X97.455 Y102.883 E6.79696
G1 X97.237 Y102.675 E6.81146
G1 X97.028 Y102.441 E6.82656
G1 X96.840 Y102.191 E6.84163
G1 X96.672 Y101.926 E6.85672
G1 X96.526 Y101.647 E6.87182
G1 X96.404 Y101.359 E6.88689
G1 X96.311 Y101.074 E6.90129
G1 X96.207 Y100.586 E6.92531
G1 X96.161 Y100.120 E6.94780
G1 X96.191 Y99.521 E6.97666
G1 X96.289 Y99.041 E7.00022
G1 X96.434 Y98.586 E7.02318
G1 X96.556 Y98.312 E7.03762
G1 X96.706 Y98.036 E7.05272
G1 X96.878 Y97.775 E7.06779
G1 X97.143 Y97.450 E7.08795
G1 X96.900 Y97.144 F7800.000
G1 F900.000
G1 X97.239 Y96.813 E7.11074
G1 X97.482 Y96.618 E7.12569
G1 X98.006 Y96.287 E7.15555
G1 X98.286 Y96.151 E7.17049
G1 X98.870 Y95.942 E7.20035
G1 X99.173 Y95.870 E7.21530
G1 X99.782 Y95.795 E7.24482
G1 X100.234 Y95.800 E7.26657
G1 X100.725 Y95.854 E7.29032
G1 X101.319 Y96.003 E7.31979
G1 X101.893 Y96.241 E7.34965
G1 X102.165 Y96.391 E7.36460
G1 X102.672 Y96.749 E7.39446
G1 X102.905 Y96.954 E7.40939
G1 X103.322 Y97.414 E7.43925
G1 X103.504 Y97.666 E7.45420
G1 X103.809 Y98.207 E7.48405
G1 X104.033 Y98.786 E7.51392
G1 X104.112 Y99.086 E7.52885
G1 X104.203 Y99.700 E7.55870
G1 X104.200 Y100.348 E7.58984
G1 X104.120 Y100.873 E7.61539
G1 X103.987 Y101.375 E7.64038
G1 X103.866 Y101.689 E7.65659
G1 X103.715 Y102.000 E7.67320
G1 X103.540 Y102.298 E7.68980
G1 X103.341 Y102.580 E7.70640
G1 X103.120 Y102.845 E7.72302
G1 X102.878 Y103.091 E7.73961
G1 X102.617 Y103.316 E7.75621
G1 X102.338 Y103.520 E7.77281
G1 X102.043 Y103.699 E7.78942
G1 X101.735 Y103.855 E7.80602
G1 X101.414 Y103.984 E7.82264
G1 X101.094 Y104.084 E7.83880
G1 X100.555 Y104.188 E7.86517
G1 X100.054 Y104.230 E7.88937
G1 X99.716 Y104.221 E7.90561
G1 X99.373 Y104.185 E7.92221
G1 X99.034 Y104.120 E7.93882
G1 X98.701 Y104.028 E7.95542
G1 X98.377 Y103.908 E7.97204
G1 X98.072 Y103.767 E7.98820
G1 X97.600 Y103.480 E8.01477
G1 X97.204 Y103.177 E8.03877
G1 X96.960 Y102.944 E8.05501
G1 X96.730 Y102.686 E8.07163
G1 X96.522 Y102.410 E8.08822
G1 X96.338 Y102.118 E8.10483
G1 X96.177 Y101.812 E8.12144
G1 X96.043 Y101.494 E8.13804
G1 X95.938 Y101.175 E8.15422
G1 X95.826 Y100.645 E8.18028
G1 X95.776 Y100.138 E8.20478
G1 X95.778 Y99.800 E8.22102
G1 X95.809 Y99.465 E8.23720
G1 X95.915 Y98.944 E8.26279
G1 X96.073 Y98.449 E8.28777
G1 X96.210 Y98.141 E8.30398
G1 X96.375 Y97.838 E8.32059
G1 X96.565 Y97.550 E8.33718
G1 X96.860 Y97.188 E8.35962
G1 X96.617 Y96.883 F7800.000
;TYPE:External perimeter
G1 F900.000
G1 X96.987 Y96.520 E8.38453
G1 X97.252 Y96.308 E8.40085
G1 X97.825 Y95.946 E8.43344
G1 X98.129 Y95.798 E8.44974
G1 X98.767 Y95.570 E8.48233
G1 X99.098 Y95.492 E8.49865
G1 X99.768 Y95.409 E8.53111
G1 X100.257 Y95.415 E8.55467
G1 X100.786 Y95.472 E8.58026
G1 X101.440 Y95.637 E8.61271
G1 X102.066 Y95.896 E8.64529
G1 X102.363 Y96.060 E8.66161
G1 X102.917 Y96.450 E8.69419
G1 X103.171 Y96.675 E8.71050
G1 X103.626 Y97.177 E8.74309
G1 X103.824 Y97.452 E8.75940
G1 X104.158 Y98.042 E8.79198
G1 X104.402 Y98.674 E8.82458
G1 X104.550 Y99.335 E8.85717
G1 X104.588 Y99.672 E8.87347
G1 X104.600 Y100.010 E8.88976
G1 X104.585 Y100.384 E8.90775
G1 X104.498 Y100.951 E8.93534
G1 X104.354 Y101.494 E8.96236
G1 X104.220 Y101.843 E8.98033
G1 X104.056 Y102.182 E8.99846
G1 X103.865 Y102.507 E9.01657
G1 X103.648 Y102.815 E9.03469
G1 X103.406 Y103.104 E9.05283
G1 X103.142 Y103.373 E9.07094
G1 X102.856 Y103.619 E9.08906
G1 X102.552 Y103.841 E9.10718
G1 X102.230 Y104.037 E9.12530
G1 X101.894 Y104.206 E9.14342
G1 X101.544 Y104.348 E9.16157
G1 X101.188 Y104.459 E9.17951
G1 X100.608 Y104.571 E9.20793
G1 X100.065 Y104.616 E9.23413
G1 X99.691 Y104.606 E9.25212
G1 X99.316 Y104.566 E9.27025
G1 X98.946 Y104.496 E9.28837
G1 X98.583 Y104.395 E9.30649
G1 X98.229 Y104.265 E9.32463
G1 X97.890 Y104.108 E9.34258
G1 X97.382 Y103.799 E9.37121
G1 X96.953 Y103.470 E9.39720
G1 X96.682 Y103.212 E9.41520
G1 X96.431 Y102.930 E9.43334
G1 X96.205 Y102.630 E9.45144
G1 X96.003 Y102.311 E9.46957
G1 X95.828 Y101.977 E9.48770
G1 X95.682 Y101.630 E9.50581
G1 X95.565 Y101.275 E9.52378
G1 X95.444 Y100.704 E9.55188
G1 X95.390 Y100.155 E9.57840
G1 X95.393 Y99.781 E9.59640
G1 X95.427 Y99.409 E9.61435
G1 X95.541 Y98.846 E9.64197
G1 X95.712 Y98.312 E9.66897
G1 X95.864 Y97.970 E9.68694
G1 X96.044 Y97.639 E9.70508
G1 X96.251 Y97.325 E9.72318
G1 X96.576 Y96.927 E9.74790
G1 X97.007 Y96.971 F7800.000
G1 X101.697 Y103.312
;TYPE:Solid infill
;WIDTH:0.457199
G1 F1200.000
G1 X102.629 Y102.380 E9.81249
G1 X102.806 Y102.169 E9.82600
G1 X103.120 Y101.682 E9.85439
G1 X103.246 Y101.421 E9.86859
G1 X103.365 Y101.089 E9.88585
G1 X101.069 Y103.385 E10.04492
G1 X100.928 Y103.429 E10.05213
G1 X100.372 Y103.526 E10.07981
G1 X103.512 Y100.387 E10.29737
G1 X103.528 Y99.814 E10.32542
G1 X99.794 Y103.548 E10.58413
G1 X99.303 Y103.484 E10.60842
G1 X103.465 Y99.322 E10.89682
G1 X103.351 Y98.880 E10.91917
G1 X98.863 Y103.368 E11.23014
G1 X98.469 Y103.207 E11.25102
G1 X103.185 Y98.491 E11.57783
G1 X102.994 Y98.126 E11.59799
G1 X98.116 Y103.004 E11.93599
G1 X97.790 Y102.775 E11.95553
G1 X102.758 Y97.807 E12.29981
G1 X102.621 Y97.631 E12.31075
G1 X102.497 Y97.513 E12.31914
G1 X97.491 Y102.518 E12.66597
G1 X97.228 Y102.226 E12.68525
G1 X102.208 Y97.246 E13.03029
G1 X101.882 Y97.016 E13.04982
G1 X96.998 Y101.900 E13.38823
G1 X96.799 Y101.544 E13.40822
G1 X101.527 Y96.816 E13.73585
G1 X101.126 Y96.661 E13.75691
G1 X96.639 Y101.148 E14.06779
G1 X96.528 Y100.704 E14.09023
G1 X100.695 Y96.537 E14.37894
G1 X100.201 Y96.475 E14.40331
G1 X96.461 Y100.215 E14.66244
G1 X96.453 Y99.834 E14.68112
G1 X96.470 Y99.651 E14.69011
G1 X99.636 Y96.485 E14.90949
G1 X98.937 Y96.629 E14.94446
G1 X96.624 Y98.941 E15.10470
G1 X96.705 Y98.689 E15.11765
G1 X96.815 Y98.440 E15.13102
G1 X97.113 Y97.943 E15.15940
G1 X97.281 Y97.728 E15.17278
G1 X98.310 Y96.700 E15.24405
;LAYER_CHANGE
;Z:0.95
;HEIGHT:0.3
G1 Z0.950 F7800.000
G1 X97.294 Y97.508
;TYPE:Perimeter
;WIDTH:0.45
G1 F900.000
G1 X97.589 Y97.219 E15.26390
G1 X97.802 Y97.049 E15.27700
G1 X98.259 Y96.760 E15.30305
G1 X98.503 Y96.642 E15.31605
G1 X99.013 Y96.460 E15.34212
G1 X99.278 Y96.397 E15.35520
G1 X99.806 Y96.332 E15.38079
G1 X100.170 Y96.335 E15.39833
G1 X100.639 Y96.385 E15.42100
G1 X101.150 Y96.514 E15.44635
G1 X101.651 Y96.721 E15.47241
G1 X101.889 Y96.852 E15.48548
G1 X102.331 Y97.164 E15.51152
G1 X102.534 Y97.344 E15.52454
G1 X102.898 Y97.745 E15.55060
