; generated by PrusaSlicer 2.3.0+win64 on 2021-03-16 at 22:39:00 UTC

; 

; external perimeters extrusion width = 0.45mm
; perimeters extrusion width = 0.45mm
; infill extrusion width = 0.45mm
; solid infill extrusion width = 0.45mm
; top infill extrusion width = 0.40mm
; first layer extrusion width = 0.70mm

M107
M104 S200 ; set temperature
;TYPE:Custom
G28 ; home all axes
G1 Z5 F5000 ; lift nozzle
M109 S200 ; set temperature and wait for it to be reached
G21 ; set units to millimeters
G90 ; use absolute coordinates
M82 ; use absolute distances for extrusion
G92 E0
; Filament gcode
;LAYER_CHANGE
;Z:0.35
;HEIGHT:0.35
G1 Z0.350 F7800.000
G1 E-2.00000 F2400.000
G92 E0
G1 X91.487 Y91.472 F7800.000
G1 E2.00000 F2400.000
;TYPE:Skirt
;WIDTH:0.7
G1 F1800.000
G1 X92.294 Y90.739 E2.09914
G1 X93.412 Y89.917 E2.22530
G1 X95.317 Y88.908 E2.42132
G1 X96.621 Y88.446 E2.54714
G1 X97.673 Y88.191 E2.64557
G1 X98.744 Y88.033 E2.74400
G1 X100.132 Y87.971 E2.87032
G1 X101.206 Y88.032 E2.96819
G1 X102.283 Y88.194 E3.06719
G1 X103.629 Y88.539 E3.19352
G1 X104.674 Y88.925 E3.29484
G1 X105.627 Y89.382 E3.39096
G1 X106.841 Y90.122 E3.52018
G1 X107.701 Y90.779 E3.61861
G1 X108.583 Y91.597 E3.72800
G1 X109.417 Y92.547 E3.84299
G1 X110.045 Y93.419 E3.94067
G1 X110.573 Y94.313 E4.03506
G1 X111.166 Y95.590 E4.16311
G1 X111.764 Y97.616 E4.35516
G1 X111.959 Y98.979 E4.48034
G1 X112.002 Y100.049 E4.57771
G1 X111.925 Y101.367 E4.69777
G1 X111.757 Y102.424 E4.79511
G1 X111.478 Y103.517 E4.89768
G1 X111.056 Y104.679 E5.01008
G1 X110.573 Y105.689 E5.11190
G1 X110.021 Y106.614 E5.20981
G1 X109.271 Y107.633 E5.32491
G1 X108.515 Y108.471 E5.42754
G1 X107.534 Y109.356 E5.54761
G1 X106.669 Y109.994 E5.64541
G1 X105.704 Y110.577 E5.74793
G1 X104.569 Y111.117 E5.86222
G1 X103.481 Y111.507 E5.96729
G1 X102.225 Y111.817 E6.08494
G1 X101.117 Y111.976 E6.18671
G1 X100.037 Y112.029 E6.28501
G1 X98.793 Y111.971 E6.39827
G1 X97.698 Y111.813 E6.49882
G1 X96.644 Y111.559 E6.59742
G1 X95.407 Y111.130 E6.71653
G1 X94.394 Y110.657 E6.81817
G1 X93.298 Y110.008 E6.93395
G1 X92.415 Y109.360 E7.03356
G1 X91.580 Y108.619 E7.13507
G1 X90.716 Y107.682 E7.25097
G1 X90.067 Y106.826 E7.34866
G1 X89.384 Y105.708 E7.46780
G1 X88.907 Y104.719 E7.56757
G1 X88.510 Y103.651 E7.67125
G1 X88.188 Y102.417 E7.78717
G1 X88.012 Y101.295 E7.89048
G1 X87.945 Y100.124 E7.99708
G1 X87.988 Y98.952 E8.10375
G1 X88.140 Y97.828 E8.20686
G1 X88.445 Y96.560 E8.32543
G1 X88.815 Y95.502 E8.42735
G1 X89.372 Y94.313 E8.54676
G1 X89.946 Y93.352 E8.64856
G1 X90.744 Y92.283 E8.76982
G1 X91.446 Y91.516 E8.86443
G1 E6.86443 F2400.000
G92 E0
G1 X97.324 Y97.556 F7800.000
G1 E2.00000 F2400.000
;TYPE:Perimeter
G1 F1800.000
G1 X97.641 Y97.251 E2.04003
G1 X97.838 Y97.095 E2.06282
G1 X98.057 Y96.946 E2.08695
G1 X98.526 Y96.698 E2.13514
G1 X99.026 Y96.521 E2.18341
G1 X99.285 Y96.461 E2.20754
G1 X99.811 Y96.398 E2.25577
G1 X100.309 Y96.411 E2.30107
G1 X100.609 Y96.451 E2.32860
G1 X101.118 Y96.581 E2.37635
G1 X101.607 Y96.786 E2.42457
G1 X101.839 Y96.915 E2.44870
G1 X102.261 Y97.214 E2.49575
G1 X102.574 Y97.504 E2.53444
G1 X102.731 Y97.679 E2.55588
G1 X102.986 Y98.022 E2.59474
G1 X103.117 Y98.236 E2.61754
G1 X103.238 Y98.472 E2.64167
G1 X103.427 Y98.967 E2.68990
G1 X103.494 Y99.224 E2.71403
G1 X103.569 Y99.746 E2.76194
G1 X103.564 Y100.312 E2.81340
G1 X103.529 Y100.585 E2.83847
G1 X103.425 Y101.032 E2.88014
G1 X103.267 Y101.462 E2.92182
G1 X103.145 Y101.712 E2.94713
G1 X103.003 Y101.951 E2.97245
G1 X102.730 Y102.319 E3.01413
G1 X102.414 Y102.651 E3.05580
G1 X102.214 Y102.822 E3.07973
G1 X101.839 Y103.082 E3.12121
G1 X101.578 Y103.227 E3.14831
G1 X101.049 Y103.439 E3.20019
G1 X100.587 Y103.551 E3.24335
G1 X100.311 Y103.588 E3.26868
G1 X100.035 Y103.603 E3.29383
G1 X99.559 Y103.580 E3.33717
G1 X99.013 Y103.473 E3.38775
G1 X98.565 Y103.317 E3.43091
G1 X98.313 Y103.199 E3.45623
G1 X98.071 Y103.061 E3.48156
G1 X97.686 Y102.785 E3.52463
G1 X97.489 Y102.611 E3.54855
G1 X97.167 Y102.261 E3.59171
G1 X97.010 Y102.052 E3.61553
G1 X96.766 Y101.644 E3.65870
G1 X96.655 Y101.407 E3.68253
G1 X96.499 Y100.959 E3.72566
G1 X96.390 Y100.396 E3.77778
G1 X96.371 Y100.120 E3.80293
G1 X96.387 Y99.644 E3.84627
G1 X96.484 Y99.095 E3.89695
G1 X96.627 Y98.662 E3.93842
G1 X96.748 Y98.390 E3.96554
G1 X96.881 Y98.148 E3.99065
G1 X97.151 Y97.757 E4.03381
G1 X97.285 Y97.601 E4.05249
G1 X96.810 Y97.195 F7800.000
G1 F1800.000
G1 X97.230 Y96.780 E4.10619
G1 X97.467 Y96.591 E4.13376
G1 X97.725 Y96.416 E4.16208
G1 X98.275 Y96.125 E4.21863
G1 X98.862 Y95.918 E4.27526
G1 X99.165 Y95.847 E4.30358
G1 X99.783 Y95.773 E4.36017
G1 X100.371 Y95.789 E4.41365
G1 X100.717 Y95.835 E4.44537
G1 X101.317 Y95.988 E4.50167
G1 X101.891 Y96.229 E4.55826
G1 X102.163 Y96.380 E4.58658
G1 X102.665 Y96.736 E4.64252
G1 X103.019 Y97.064 E4.68644
G1 X103.215 Y97.283 E4.71312
G1 X103.505 Y97.672 E4.75721
G1 X103.662 Y97.930 E4.78472
G1 X103.805 Y98.207 E4.81303
G1 X104.026 Y98.788 E4.86962
G1 X104.104 Y99.090 E4.89794
G1 X104.193 Y99.704 E4.95433
G1 X104.187 Y100.364 E5.01441
G1 X104.145 Y100.696 E5.04481
G1 X104.025 Y101.211 E5.09288
G1 X103.843 Y101.707 E5.14096
G1 X103.695 Y102.009 E5.17151
G1 X103.524 Y102.298 E5.20206
G1 X103.209 Y102.723 E5.25013
G1 X102.844 Y103.105 E5.29820
G1 X102.596 Y103.318 E5.32791
G1 X102.169 Y103.614 E5.37513
G1 X101.858 Y103.786 E5.40750
G1 X101.543 Y103.927 E5.43884
G1 X101.227 Y104.039 E5.46939
G1 X100.703 Y104.166 E5.51837
G1 X100.370 Y104.211 E5.54892
G1 X100.036 Y104.229 E5.57930
G1 X99.496 Y104.202 E5.62846
G1 X99.164 Y104.152 E5.65900
G1 X98.837 Y104.074 E5.68955
G1 X98.329 Y103.897 E5.73853
G1 X98.025 Y103.754 E5.76909
G1 X97.733 Y103.587 E5.79964
G1 X97.296 Y103.274 E5.84853
G1 X97.051 Y103.057 E5.87827
G1 X96.686 Y102.661 E5.92724
G1 X96.491 Y102.400 E5.95688
G1 X96.214 Y101.938 E6.00586
G1 X96.076 Y101.643 E6.03551
G1 X95.898 Y101.135 E6.08446
G1 X95.821 Y100.807 E6.11504
G1 X95.769 Y100.465 E6.14650
G1 X95.745 Y100.132 E6.17688
G1 X95.763 Y99.592 E6.22604
G1 X95.808 Y99.259 E6.25658
G1 X95.881 Y98.930 E6.28720
G1 X96.043 Y98.437 E6.33440
G1 X96.188 Y98.111 E6.36679
G1 X96.349 Y97.818 E6.39722
G1 X96.656 Y97.375 E6.44620
G1 X96.771 Y97.241 E6.46233
G1 X96.296 Y96.834 F7800.000
;TYPE:External perimeter
G1 F1800.000
G1 X96.414 Y96.697 E6.47882
G1 X96.818 Y96.308 E6.52977
G1 X97.097 Y96.087 E6.56212
G1 X97.393 Y95.886 E6.59462
G1 X97.702 Y95.708 E6.62712
G1 X98.024 Y95.552 E6.65958
G1 X98.356 Y95.421 E6.69212
G1 X98.698 Y95.314 E6.72462
G1 X99.046 Y95.233 E6.75712
G1 X99.399 Y95.178 E6.78963
G1 X99.755 Y95.149 E6.82213
G1 X100.433 Y95.167 E6.88378
G1 X100.824 Y95.219 E6.91969
G1 X101.173 Y95.294 E6.95208
G1 X101.515 Y95.395 E6.98458
G1 X101.850 Y95.521 E7.01709
G1 X102.174 Y95.672 E7.04959
G1 X102.487 Y95.845 E7.08209
G1 X102.785 Y96.041 E7.11459
G1 X103.068 Y96.258 E7.14696
G1 X103.465 Y96.625 E7.19612
G1 X103.699 Y96.886 E7.22803
G1 X104.023 Y97.321 E7.27736
G1 X104.208 Y97.624 E7.30957
G1 X104.371 Y97.942 E7.34207
G1 X104.510 Y98.271 E7.37457
G1 X104.625 Y98.609 E7.40707
G1 X104.715 Y98.955 E7.43957
G1 X104.779 Y99.307 E7.47208
G1 X104.817 Y99.661 E7.50448
G1 X104.827 Y100.021 E7.53718
G1 X104.811 Y100.417 E7.57323
G1 X104.761 Y100.807 E7.60896
G1 X104.625 Y101.390 E7.66344
G1 X104.418 Y101.953 E7.71791
G1 X104.246 Y102.306 E7.75369
G1 X104.045 Y102.645 E7.78948
G1 X103.688 Y103.126 E7.84395
G1 X103.275 Y103.560 E7.89842
G1 X102.978 Y103.813 E7.93390
G1 X102.500 Y104.145 E7.98685
G1 X102.137 Y104.346 E8.02450
G1 X101.776 Y104.508 E8.06057
G1 X101.404 Y104.639 E8.09635
G1 X100.819 Y104.781 E8.15115
G1 X100.429 Y104.834 E8.18693
G1 X100.038 Y104.854 E8.22254
G1 X99.434 Y104.825 E8.27752
G1 X99.045 Y104.765 E8.31330
G1 X98.662 Y104.674 E8.34908
G1 X98.093 Y104.476 E8.40388
G1 X97.736 Y104.309 E8.43966
G1 X97.395 Y104.114 E8.47545
G1 X96.906 Y103.763 E8.53015
G1 X96.613 Y103.504 E8.56571
G1 X96.205 Y103.061 E8.62050
G1 X95.971 Y102.749 E8.65596
G1 X95.661 Y102.232 E8.71076
G1 X95.496 Y101.879 E8.74622
G1 X95.298 Y101.310 E8.80098
G1 X95.207 Y100.927 E8.83680
G1 X95.147 Y100.534 E8.87291
G1 X95.120 Y100.144 E8.90851
G1 X95.139 Y99.539 E8.96349
G1 X95.192 Y99.149 E8.99927
G1 X95.277 Y98.765 E9.03508
G1 X95.459 Y98.212 E9.08802
G1 X95.627 Y97.833 E9.12569
G1 X95.817 Y97.489 E9.16142
G1 X96.257 Y96.880 E9.22975
G1 X96.476 Y96.860 F7800.000
G1 E7.22975 F2400.000
G92 E0
G1 X103.136 Y98.731 F7800.000
G1 E2.00000 F2400.000
;TYPE:Solid infill
;WIDTH:0.701829
G1 F1800.000
G1 X101.965 Y97.579 E2.14976
G1 X101.589 Y97.312 E2.19182
G1 X101.402 Y97.208 E2.21131
G1 X100.961 Y97.023 E2.25496
G1 X100.757 Y96.964 E2.27430
G1 X100.426 Y96.907 E2.30495
G1 X103.067 Y99.547 E2.64550
G1 X103.100 Y99.778 E2.66671
G1 X103.096 Y100.280 E2.71253
G1 X103.075 Y100.442 E2.72742
G1 X99.530 Y96.897 E3.18464
G1 X99.383 Y96.920 E3.19823
G1 X98.929 Y97.043 E3.24108
G1 X98.832 Y97.086 E3.25072
G1 X102.886 Y101.139 E3.77353
G1 X102.732 Y101.489 E3.80837
G1 X102.586 Y101.726 E3.83374
G1 X98.248 Y97.387 E4.39331
G1 X97.944 Y97.610 E4.42771
G1 X97.760 Y97.786 E4.45086
G1 X102.185 Y102.211 E5.02157
G1 X101.927 Y102.451 E5.05370
G1 X101.698 Y102.610 E5.07916
G1 X97.363 Y98.275 E5.63823
G1 X97.168 Y98.598 E5.67264
G1 X97.057 Y98.855 E5.69818
G1 X101.111 Y102.909 E6.22107
G1 X100.906 Y102.992 E6.24123
G1 X100.416 Y103.101 E6.28697
G1 X96.877 Y99.562 E6.74340
G1 X96.854 Y99.693 E6.75553
G1 X96.840 Y100.112 E6.79375
G1 X96.878 Y100.449 E6.82468
G1 X99.524 Y103.095 E7.16601
G1 X99.136 Y103.020 E7.20212
G1 X98.742 Y102.882 E7.24016
G1 X98.324 Y102.666 E7.28304
G1 X97.978 Y102.418 E7.32187
G1 X97.823 Y102.280 E7.34077
G1 X96.802 Y101.260 E7.47240
;LAYER_CHANGE
;Z:0.65
;HEIGHT:0.3
G1 Z0.650 F7800.000
G1 X96.660 Y97.177
;TYPE:Perimeter
;WIDTH:0.45
G1 F900.000
G1 X97.026 Y96.797 E7.49775
G1 X97.403 Y96.487 E7.52120
G1 X97.937 Y96.152 E7.55156
G1 X98.524 Y95.895 E7.58236
G1 X99.142 Y95.727 E7.61316
G1 X99.458 Y95.677 E7.62857
G1 X99.768 Y95.652 E7.64352
G1 X100.203 Y95.657 E7.66442
G1 X100.749 Y95.717 E7.69087
G1 X101.048 Y95.782 E7.70558
G1 X101.356 Y95.872 E7.72099
G1 X101.946 Y96.120 E7.75179
G1 X102.214 Y96.268 E7.76651
G1 X102.664 Y96.584 E7.79296
G1 X102.994 Y96.866 E7.81385
G1 X103.210 Y97.090 E7.82881
G1 X103.602 Y97.596 E7.85961
G1 X103.769 Y97.870 E7.87502
G1 X104.040 Y98.450 E7.90582
G1 X104.143 Y98.753 E7.92123
G1 X104.281 Y99.379 E7.95203
G1 X104.325 Y100.016 E7.98273
G1 X104.309 Y100.374 E7.99999
G1 X104.266 Y100.716 E8.01658
G1 X104.140 Y101.256 E8.04323
G1 X104.030 Y101.576 E8.05950
G1 X103.829 Y102.015 E8.08272
G1 X103.618 Y102.377 E8.10287
G1 X103.419 Y102.657 E8.11941
G1 X103.103 Y103.022 E8.14263
G1 X102.799 Y103.310 E8.16277
G1 X102.530 Y103.521 E8.17919
G1 X102.062 Y103.817 E8.20584
G1 X101.759 Y103.968 E8.22211
G1 X101.308 Y104.140 E8.24533
G1 X100.904 Y104.251 E8.26547
G1 X100.566 Y104.311 E8.28201
G1 X100.084 Y104.349 E8.30524
G1 X99.676 Y104.341 E8.32489
G1 X99.131 Y104.269 E8.35132
G1 X98.795 Y104.189 E8.36795
G1 X98.456 Y104.079 E8.38507
G1 X98.137 Y103.945 E8.40171
G1 X97.651 Y103.680 E8.42835
G1 X97.374 Y103.490 E8.44451
G1 X96.952 Y103.132 E8.47114
G1 X96.717 Y102.888 E8.48741
G1 X96.418 Y102.509 E8.51063
G1 X96.193 Y102.156 E8.53078
G1 X96.035 Y101.853 E8.54720
G1 X95.832 Y101.338 E8.57384
G1 X95.741 Y101.015 E8.58998
G1 X95.646 Y100.469 E8.61663
G1 X95.622 Y100.124 E8.63326
G1 X95.627 Y99.778 E8.64990
G1 X95.690 Y99.227 E8.67654
G1 X95.764 Y98.890 E8.69317
G1 X95.869 Y98.550 E8.71030
G1 X96.000 Y98.223 E8.72720
G1 X96.190 Y97.850 E8.74735
G1 X96.450 Y97.444 E8.77057
G1 X96.623 Y97.224 E8.78400
G1 X96.369 Y96.923 F7800.000
G1 F900.000
G1 X96.764 Y96.514 E8.81135
G1 X97.171 Y96.178 E8.83672
G1 X97.455 Y95.986 E8.85322
G1 X97.757 Y95.811 E8.86999
G1 X98.071 Y95.660 E8.88677
G1 X98.395 Y95.531 E8.90355
G1 X98.728 Y95.427 E8.92033
G1 X99.068 Y95.348 E8.93710
G1 X99.413 Y95.294 E8.95388
G1 X99.755 Y95.266 E8.97038
G1 X100.226 Y95.271 E8.99305
G1 X100.811 Y95.336 E9.02138
G1 X101.144 Y95.408 E9.03772
G1 X101.478 Y95.506 E9.05450
G1 X101.805 Y95.629 E9.07128
G1 X102.121 Y95.776 E9.08806
G1 X102.418 Y95.941 E9.10441
G1 X102.901 Y96.278 E9.13273
G1 X103.259 Y96.586 E9.15541
G1 X103.497 Y96.832 E9.17191
G1 X103.721 Y97.100 E9.18868
G1 X103.924 Y97.383 E9.20546
G1 X104.106 Y97.681 E9.22224
G1 X104.265 Y97.991 E9.23901
G1 X104.401 Y98.313 E9.25579
G1 X104.513 Y98.643 E9.27257
G1 X104.601 Y98.981 E9.28934
G1 X104.663 Y99.324 E9.30612
G1 X104.700 Y99.670 E9.32287
G1 X104.711 Y100.018 E9.33961
G1 X104.694 Y100.407 E9.35833
G1 X104.646 Y100.785 E9.37665
G1 X104.511 Y101.363 E9.40520
G1 X104.388 Y101.719 E9.42332
G1 X104.172 Y102.192 E9.44835
G1 X103.943 Y102.586 E9.47025
G1 X103.723 Y102.896 E9.48854
G1 X103.382 Y103.289 E9.51358
G1 X103.051 Y103.602 E9.53548
G1 X102.753 Y103.836 E9.55368
G1 X102.252 Y104.154 E9.58223
G1 X101.915 Y104.321 E9.60035
G1 X101.428 Y104.507 E9.62539
G1 X100.989 Y104.627 E9.64729
G1 X100.615 Y104.694 E9.66557
G1 X100.096 Y104.735 E9.69061
G1 X99.647 Y104.726 E9.71221
G1 X99.061 Y104.649 E9.74063
G1 X98.690 Y104.561 E9.75896
G1 X98.322 Y104.441 E9.77760
G1 X97.970 Y104.293 E9.79594
G1 X97.449 Y104.009 E9.82449
G1 X97.139 Y103.797 E9.84254
G1 X96.687 Y103.413 E9.87108
G1 X96.426 Y103.141 E9.88919
G1 X96.104 Y102.733 E9.91423
G1 X95.858 Y102.349 E9.93613
G1 X95.684 Y102.013 E9.95435
G1 X95.466 Y101.461 E9.98289
G1 X95.364 Y101.100 E10.00093
G1 X95.263 Y100.515 E10.02947
G1 X95.237 Y100.135 E10.04781
G1 X95.241 Y99.753 E10.06616
G1 X95.309 Y99.164 E10.09470
G1 X95.391 Y98.791 E10.11304
G1 X95.505 Y98.421 E10.13168
G1 X95.648 Y98.064 E10.15018
G1 X95.855 Y97.658 E10.17209
G1 X96.136 Y97.220 E10.19712
G1 X96.332 Y96.970 E10.21238
G1 X96.101 Y96.646 F7800.000
;TYPE:External perimeter
G1 F900.000
G1 X96.502 Y96.230 E10.24016
G1 X96.939 Y95.870 E10.26744
G1 X97.250 Y95.659 E10.28548
G1 X97.576 Y95.470 E10.30363
G1 X97.916 Y95.306 E10.32177
G1 X98.267 Y95.167 E10.33992
G1 X98.627 Y95.055 E10.35806
G1 X98.994 Y94.969 E10.37620
G1 X99.367 Y94.911 E10.39434
G1 X99.741 Y94.880 E10.41238
G1 X100.249 Y94.886 E10.43684
G1 X100.873 Y94.955 E10.46704
G1 X101.239 Y95.034 E10.48502
G1 X101.601 Y95.141 E10.50317
G1 X101.954 Y95.273 E10.52131
G1 X102.296 Y95.432 E10.53945
G1 X102.623 Y95.614 E10.55744
G1 X103.138 Y95.973 E10.58764
G1 X103.523 Y96.305 E10.61209
G1 X103.784 Y96.574 E10.63014
G1 X104.026 Y96.864 E10.64828
G1 X104.246 Y97.170 E10.66642
G1 X104.442 Y97.492 E10.68456
G1 X104.614 Y97.828 E10.70270
G1 X104.762 Y98.175 E10.72085
G1 X104.883 Y98.532 E10.73899
G1 X104.977 Y98.898 E10.75714
G1 X105.045 Y99.269 E10.77527
G1 X105.085 Y99.644 E10.79341
G1 X105.097 Y100.020 E10.81154
G1 X105.078 Y100.440 E10.83173
G1 X105.026 Y100.853 E10.85177
G1 X104.882 Y101.469 E10.88221
G1 X104.747 Y101.862 E10.90218
G1 X104.515 Y102.370 E10.92903
G1 X104.267 Y102.795 E10.95269
G1 X104.026 Y103.134 E10.97272
G1 X103.660 Y103.556 E10.99957
G1 X103.303 Y103.894 E11.02323
G1 X102.976 Y104.151 E11.04323
G1 X102.441 Y104.490 E11.07367
G1 X102.070 Y104.675 E11.09364
G1 X101.548 Y104.874 E11.12049
G1 X101.074 Y105.004 E11.14415
G1 X100.664 Y105.077 E11.16418
G1 X100.107 Y105.121 E11.19103
G1 X99.618 Y105.111 E11.21458
G1 X98.991 Y105.029 E11.24498
G1 X98.586 Y104.932 E11.26502
G1 X98.187 Y104.802 E11.28518
G1 X97.803 Y104.641 E11.30523
G1 X97.247 Y104.338 E11.33568
G1 X96.905 Y104.104 E11.35562
G1 X96.423 Y103.694 E11.38606
G1 X96.135 Y103.395 E11.40602
G1 X95.789 Y102.956 E11.43287
G1 X95.524 Y102.542 E11.45653
G1 X95.333 Y102.173 E11.47654
G1 X95.100 Y101.584 E11.50698
G1 X94.988 Y101.185 E11.52692
G1 X94.880 Y100.561 E11.55736
G1 X94.851 Y100.146 E11.57741
G1 X94.856 Y99.729 E11.59747
G1 X94.928 Y99.100 E11.62790
G1 X95.018 Y98.693 E11.64795
G1 X95.141 Y98.292 E11.66811
G1 X95.297 Y97.904 E11.68822
G1 X95.520 Y97.466 E11.71188
G1 X95.821 Y96.996 E11.73873
G1 X96.061 Y96.691 E11.75739
G1 X96.493 Y96.723 F7800.000
G1 X101.992 Y103.723
;TYPE:Solid infill
;WIDTH:0.450982
G1 F1200.000
G1 X102.897 Y102.818 E11.81910
G1 X103.192 Y102.478 E11.84078
G1 X103.375 Y102.220 E11.85606
G1 X103.572 Y101.882 E11.87493
G1 X103.793 Y101.375 E11.90157
G1 X101.355 Y103.813 E12.06778
